!!!!SEGMENT: pl-sa--l-1643--089_anonim--chrystus-zmartwychwstan-jest.krn
!!!cenid: 16xx:1447
!!!COM: Anonim
!!!COM-rismid: pe30004985
!!!CDT:
!!!CNT:
!!!OTL: Chrystus zmartwychwstan jest
!!!PDT:
!!!AGN: Sacred
!!!SMS-siglum: PL-SA
!!!SMS-shelfmark: L 1643
!!!SMS-shelfwork: 089 W
!!!SMS-variant:
!!!SMS-altvar:
!!!NIFC-rismid: 1001063729
!!!system-decoration: [(s1,s2,s3,s4)][(s5,s6,s7,s8)]
**kern	**text	**text	**text	**text	**text	**text	**text	**text	**text	**text	**text	**text	**kern	**text	**text	**text	**text	**text	**text	**text	**text	**text	**text	**text	**text	**kern	**text	**text	**text	**text	**text	**text	**text	**text	**text	**text	**text	**text	**kern	**text	**text	**text	**text	**text	**text	**text	**text	**text	**text	**text	**text	**kern	**text	**text	**text	**text	**text	**text	**text	**text	**text	**text	**text	**text	**kern	**text	**text	**text	**text	**text	**text	**text	**text	**text	**text	**text	**text	**kern	**text	**text	**text	**text	**text	**text	**text	**text	**text	**text	**text	**text	**kern	**text	**text	**text	**text	**text	**text	**text	**text	**text	**text	**text	**text
*part8	*part8	*part8	*part8	*part8	*part8	*part8	*part8	*part8	*part8	*part8	*part8	*part8	*part7	*part7	*part7	*part7	*part7	*part7	*part7	*part7	*part7	*part7	*part7	*part7	*part7	*part6	*part6	*part6	*part6	*part6	*part6	*part6	*part6	*part6	*part6	*part6	*part6	*part6	*part5	*part5	*part5	*part5	*part5	*part5	*part5	*part5	*part5	*part5	*part5	*part5	*part5	*part4	*part4	*part4	*part4	*part4	*part4	*part4	*part4	*part4	*part4	*part4	*part4	*part4	*part3	*part3	*part3	*part3	*part3	*part3	*part3	*part3	*part3	*part3	*part3	*part3	*part3	*part2	*part2	*part2	*part2	*part2	*part2	*part2	*part2	*part2	*part2	*part2	*part2	*part2	*part1	*part1	*part1	*part1	*part1	*part1	*part1	*part1	*part1	*part1	*part1	*part1	*part1
*staff8	*staff8	*staff8	*staff8	*staff8	*staff8	*staff8	*staff8	*staff8	*staff8	*staff8	*staff8	*staff8	*staff7	*staff7	*staff7	*staff7	*staff7	*staff7	*staff7	*staff7	*staff7	*staff7	*staff7	*staff7	*staff7	*staff6	*staff6	*staff6	*staff6	*staff6	*staff6	*staff6	*staff6	*staff6	*staff6	*staff6	*staff6	*staff6	*staff5	*staff5	*staff5	*staff5	*staff5	*staff5	*staff5	*staff5	*staff5	*staff5	*staff5	*staff5	*staff5	*staff4	*staff4	*staff4	*staff4	*staff4	*staff4	*staff4	*staff4	*staff4	*staff4	*staff4	*staff4	*staff4	*staff3	*staff3	*staff3	*staff3	*staff3	*staff3	*staff3	*staff3	*staff3	*staff3	*staff3	*staff3	*staff3	*staff2	*staff2	*staff2	*staff2	*staff2	*staff2	*staff2	*staff2	*staff2	*staff2	*staff2	*staff2	*staff2	*staff1	*staff1	*staff1	*staff1	*staff1	*staff1	*staff1	*staff1	*staff1	*staff1	*staff1	*staff1	*staff1
*I"Bassus 2di Chori	*	*	*	*	*	*	*	*	*	*	*	*	*I"Altus secundi Chori	*	*	*	*	*	*	*	*	*	*	*	*	*I"Cantus 2dus Secundi Chori.	*	*	*	*	*	*	*	*	*	*	*	*	*I"Primus Cantus 2di Chori	*	*	*	*	*	*	*	*	*	*	*	*	*I"Bassus Primi Chori	*	*	*	*	*	*	*	*	*	*	*	*	*I"Cantus 3tius Primi Chori	*	*	*	*	*	*	*	*	*	*	*	*	*I"Cantus 2dus Primi Chori	*	*	*	*	*	*	*	*	*	*	*	*	*I"Imo Cantus Primi Chori	*	*	*	*	*	*	*	*	*	*	*	*
*I'B.	*	*	*	*	*	*	*	*	*	*	*	*	*I'A.	*	*	*	*	*	*	*	*	*	*	*	*	*I'C. 2	*	*	*	*	*	*	*	*	*	*	*	*	*I'C. 1	*	*	*	*	*	*	*	*	*	*	*	*	*I'B.	*	*	*	*	*	*	*	*	*	*	*	*	*I'C. 3	*	*	*	*	*	*	*	*	*	*	*	*	*I'C. 2	*	*	*	*	*	*	*	*	*	*	*	*	*I'C. 1	*	*	*	*	*	*	*	*	*	*	*	*
*clefC3	*	*	*	*	*	*	*	*	*	*	*	*	*clefC2	*	*	*	*	*	*	*	*	*	*	*	*	*clefC1	*	*	*	*	*	*	*	*	*	*	*	*	*clefG2	*	*	*	*	*	*	*	*	*	*	*	*	*clefC3	*	*	*	*	*	*	*	*	*	*	*	*	*clefC2	*	*	*	*	*	*	*	*	*	*	*	*	*clefC1	*	*	*	*	*	*	*	*	*	*	*	*	*clefG2	*	*	*	*	*	*	*	*	*	*	*	*
*k[b-]	*	*	*	*	*	*	*	*	*	*	*	*	*k[b-]	*	*	*	*	*	*	*	*	*	*	*	*	*k[b-]	*	*	*	*	*	*	*	*	*	*	*	*	*k[b-]	*	*	*	*	*	*	*	*	*	*	*	*	*k[b-]	*	*	*	*	*	*	*	*	*	*	*	*	*k[b-]	*	*	*	*	*	*	*	*	*	*	*	*	*k[b-]	*	*	*	*	*	*	*	*	*	*	*	*	*k[b-]	*	*	*	*	*	*	*	*	*	*	*	*
*g:	*	*	*	*	*	*	*	*	*	*	*	*	*g:	*	*	*	*	*	*	*	*	*	*	*	*	*g:	*	*	*	*	*	*	*	*	*	*	*	*	*g:	*	*	*	*	*	*	*	*	*	*	*	*	*g:	*	*	*	*	*	*	*	*	*	*	*	*	*g:	*	*	*	*	*	*	*	*	*	*	*	*	*g:	*	*	*	*	*	*	*	*	*	*	*	*	*g:	*	*	*	*	*	*	*	*	*	*	*	*
*M2/2	*	*	*	*	*	*	*	*	*	*	*	*	*M2/2	*	*	*	*	*	*	*	*	*	*	*	*	*M2/2	*	*	*	*	*	*	*	*	*	*	*	*	*M2/2	*	*	*	*	*	*	*	*	*	*	*	*	*M2/2	*	*	*	*	*	*	*	*	*	*	*	*	*M2/2	*	*	*	*	*	*	*	*	*	*	*	*	*M2/2	*	*	*	*	*	*	*	*	*	*	*	*	*M2/2	*	*	*	*	*	*	*	*	*	*	*	*
*met(c|)	*	*	*	*	*	*	*	*	*	*	*	*	*met(c|)	*	*	*	*	*	*	*	*	*	*	*	*	*met(c|)	*	*	*	*	*	*	*	*	*	*	*	*	*met(c|)	*	*	*	*	*	*	*	*	*	*	*	*	*met(c|)	*	*	*	*	*	*	*	*	*	*	*	*	*met(c|)	*	*	*	*	*	*	*	*	*	*	*	*	*met(c|)	*	*	*	*	*	*	*	*	*	*	*	*	*met(c|)	*	*	*	*	*	*	*	*	*	*	*	*
=1-	=1-	=1-	=1-	=1-	=1-	=1-	=1-	=1-	=1-	=1-	=1-	=1-	=1-	=1-	=1-	=1-	=1-	=1-	=1-	=1-	=1-	=1-	=1-	=1-	=1-	=1-	=1-	=1-	=1-	=1-	=1-	=1-	=1-	=1-	=1-	=1-	=1-	=1-	=1-	=1-	=1-	=1-	=1-	=1-	=1-	=1-	=1-	=1-	=1-	=1-	=1-	=1-	=1-	=1-	=1-	=1-	=1-	=1-	=1-	=1-	=1-	=1-	=1-	=1-	=1-	=1-	=1-	=1-	=1-	=1-	=1-	=1-	=1-	=1-	=1-	=1-	=1-	=1-	=1-	=1-	=1-	=1-	=1-	=1-	=1-	=1-	=1-	=1-	=1-	=1-	=1-	=1-	=1-	=1-	=1-	=1-	=1-	=1-	=1-	=1-	=1-	=1-	=1-
0r	.	.	.	.	.	.	.	.	.	.	.	.	0r	.	.	.	.	.	.	.	.	.	.	.	.	0r	.	.	.	.	.	.	.	.	.	.	.	.	0r	.	.	.	.	.	.	.	.	.	.	.	.	4g\	Chriſ-	Iż	Le-	Bok	Je-	Po-	Trzy	Chcia-	Po-	Wi-	Bądź-	Cze-	4b-\	Chriſ-	Iż	Le-	Bok	Je-	Po-	Trzy	Chcia-	Po-	Wi-	Bądź-	Cze-	4dd\	Chriſ-	Iż	Le-	Bok	Je-	Po-	Trzy	Chcia-	Po-	Wi-	Bądź-	Cze-	4gg\	Chriſ-	Iż	Le-	Bok	Je-	Po-	Trzy	Chcia-	Po-	Wi-	Bądź-	Cze-
.	.	.	.	.	.	.	.	.	.	.	.	.	.	.	.	.	.	.	.	.	.	.	.	.	.	.	.	.	.	.	.	.	.	.	.	.	.	.	.	.	.	.	.	.	.	.	.	.	.	.	.	4g\	-tus	ma-	-żał	rę-	-zus	-ka-	Ma-	-ły	-wiedz	-dzia-	-my	-gos-	4b-\	-tus	ma-	-żał	rę-	-zus	-ka-	Ma-	-ły	-wiedz	-dzia-	-my	-gos-	4dd\	-tus	ma-	-żał	rę-	-zus	-ka-	Ma-	-ły	-wiedz	-dzia-	-my	-gos-	4gg\	-tus	ma-	-żał	rę-	-zus	-ka-	Ma-	-ły	-wiedz	-dzia-	-my	-gos-
!	!	!	!	!	!	!	!	!	!	!	!	!	!	!	!	!	!	!	!	!	!	!	!	!	!	!	!	!	!	!	!	!	!	!	!	!	!	!	!	!	!	!	!	!	!	!	!	!	!	!	!	!	!	!	!	!	!	!	!	!	!	!	!	!	!	!	!	!	!	!	!	!	!	!	!	!	!	!	!	!	!	!	!	!	!	!	!	!	!	!	!LO:TX:t=P:problem:# below	!	!	!	!	!	!	!	!	!	!	!	!
.	.	.	.	.	.	.	.	.	.	.	.	.	.	.	.	.	.	.	.	.	.	.	.	.	.	.	.	.	.	.	.	.	.	.	.	.	.	.	.	.	.	.	.	.	.	.	.	.	.	.	.	4d\	zmart-	-my	trzy	-ce	Na-	-zał	-ri-	Chriſ-	nam	-ła	wszys-	-my	4a\	zmart-	-my	trzy	-ce	Na-	-zał	-ri-	Chriſ-	nam	-ła	wszys-	-my	4dd\	zmart-	-my	trzy	-ce	Na-	-zał	-ri-	Chriſ-	nam	-ła	wszys-	-my	4ff#X\	zmart-	-my	trzy	-ce	Na-	-zał	-ri-	Chriſ-	nam	-ła	wszys-	-my
.	.	.	.	.	.	.	.	.	.	.	.	.	.	.	.	.	.	.	.	.	.	.	.	.	.	.	.	.	.	.	.	.	.	.	.	.	.	.	.	.	.	.	.	.	.	.	.	.	.	.	.	4d\	-wych-	zmart-	dni	no-	-za-	nam	-e	-ta	Ma-	go	-cy	po-	4a\	-wych-	zmart-	dni	no-	-za-	nam	-e	-ta	Ma-	go	-cy	po-	4dd\	-wych-	zmart-	dni	no-	-za-	nam	-e	-ta	Ma-	go	-cy	po-	4ff#\	-wych-	zmart-	dni	no-	-za-	nam	-e	-ta	Ma-	go	-cy	po-
=2-	=2-	=2-	=2-	=2-	=2-	=2-	=2-	=2-	=2-	=2-	=2-	=2-	=2-	=2-	=2-	=2-	=2-	=2-	=2-	=2-	=2-	=2-	=2-	=2-	=2-	=2-	=2-	=2-	=2-	=2-	=2-	=2-	=2-	=2-	=2-	=2-	=2-	=2-	=2-	=2-	=2-	=2-	=2-	=2-	=2-	=2-	=2-	=2-	=2-	=2-	=2-	=2-	=2-	=2-	=2-	=2-	=2-	=2-	=2-	=2-	=2-	=2-	=2-	=2-	=2-	=2-	=2-	=2-	=2-	=2-	=2-	=2-	=2-	=2-	=2-	=2-	=2-	=2-	=2-	=2-	=2-	=2-	=2-	=2-	=2-	=2-	=2-	=2-	=2-	=2-	=2-	=2-	=2-	=2-	=2-	=2-	=2-	=2-	=2-	=2-	=2-	=2-	=2-
.	.	.	.	.	.	.	.	.	.	.	.	.	.	.	.	.	.	.	.	.	.	.	.	.	.	.	.	.	.	.	.	.	.	.	.	.	.	.	.	.	.	.	.	.	.	.	.	.	.	.	.	8G/L	-wſtan	-wych	w gro-	-gi	-ren-	ſwo-	posz-	na-	-ri-	po	we-	-żą-	4b-\	-wſtan	-wych	w gro-	-gi	-ren-	ſwo-	posz-	na-	-ri-	po	we-	-żą-	4b-\	-wſtan	-wych	w gro-	-gi	-ren-	ſwo-	posz-	na-	-ri-	po	we-	-żą-	4gg\	-wſtan	-wych	w gro-	-gi	-ren-	ſwo-	posz-	na-	-ri-	po	we-	-żą-
.	.	.	.	.	.	.	.	.	.	.	.	.	.	.	.	.	.	.	.	.	.	.	.	.	.	.	.	.	.	.	.	.	.	.	.	.	.	.	.	.	.	.	.	.	.	.	.	.	.	.	.	8A/	.	pow-	.	o-	.	-ię	.	-ma-	.	mę-	-se-	-da-	.	.	.	.	.	.	.	.	.	.	.	.	.	.	.	.	.	.	.	.	.	.	.	.	.	.	.	.	.	.	.	.	.	.	.	.	.	.	.
.	.	.	.	.	.	.	.	.	.	.	.	.	.	.	.	.	.	.	.	.	.	.	.	.	.	.	.	.	.	.	.	.	.	.	.	.	.	.	.	.	.	.	.	.	.	.	.	.	.	.	.	8B-/	iest	-stać	-bie	-bie	-ski	moc	-ły	-zać	-a	-ce	-li	-li	4g\	.	pow-	.	o-	.	-ię	.	-ma-	.	mę-	-se-	-da-	4dd\	.	pow-	.	o-	.	-ię	.	-ma-	.	mę-	-se-	-da-	4gg\	.	pow-	.	o-	.	-ię	.	-ma-	.	mę-	-se-	-da-
.	.	.	.	.	.	.	.	.	.	.	.	.	.	.	.	.	.	.	.	.	.	.	.	.	.	.	.	.	.	.	.	.	.	.	.	.	.	.	.	.	.	.	.	.	.	.	.	.	.	.	.	8c/J	.	.	.	.	.	.	.	.	.	.	.	.	.	.	.	.	.	.	.	.	.	.	.	.	.	.	.	.	.	.	.	.	.	.	.	.	.	.	.	.	.	.	.	.	.	.	.	.	.	.	.
.	.	.	.	.	.	.	.	.	.	.	.	.	.	.	.	.	.	.	.	.	.	.	.	.	.	.	.	.	.	.	.	.	.	.	.	.	.	.	.	.	.	.	.	.	.	.	.	.	.	.	.	2d\	.	.	.	.	.	.	.	.	.	.	.	.	2a\	iest	-stać	-bie	-bie	-ski	moc	-ły	-zać	-a	-ce	-li	-li	2dd\	iest	-stać	-bie	-bie	-ski	moc	-ły	-zać	-a	-ce	-li	-li	2cc\	iest	-stać	-bie	-bie	-ski	moc	-ły	-zać	-a	-ce	-li	-li
=3-	=3-	=3-	=3-	=3-	=3-	=3-	=3-	=3-	=3-	=3-	=3-	=3-	=3-	=3-	=3-	=3-	=3-	=3-	=3-	=3-	=3-	=3-	=3-	=3-	=3-	=3-	=3-	=3-	=3-	=3-	=3-	=3-	=3-	=3-	=3-	=3-	=3-	=3-	=3-	=3-	=3-	=3-	=3-	=3-	=3-	=3-	=3-	=3-	=3-	=3-	=3-	=3-	=3-	=3-	=3-	=3-	=3-	=3-	=3-	=3-	=3-	=3-	=3-	=3-	=3-	=3-	=3-	=3-	=3-	=3-	=3-	=3-	=3-	=3-	=3-	=3-	=3-	=3-	=3-	=3-	=3-	=3-	=3-	=3-	=3-	=3-	=3-	=3-	=3-	=3-	=3-	=3-	=3-	=3-	=3-	=3-	=3-	=3-	=3-	=3-	=3-	=3-	=3-
4g\	Chriſ-	Iż	Le-	Bok	Je-	Po-	Trzy	Chcia-	Po-	Wi-	Bądź-	Cze-	4b-\	Chriſ-	Iż	Le-	Bok	Je-	Po-	Trzy	Chcia-	Po-	Wi-	Bądź-	Cze-	4dd\	Chriſ-	Iż	Le-	Bok	Je-	Po-	Trzy	Chcia-	Po-	Wi-	Bądź-	Cze-	4gg\	Chriſ-	Iż	Le-	Bok	Je-	Po-	Trzy	Chcia-	Po-	Wi-	Bądź-	Cze-	0r	.	.	.	.	.	.	.	.	.	.	.	.	0r	.	.	.	.	.	.	.	.	.	.	.	.	0r	.	.	.	.	.	.	.	.	.	.	.	.	0r	.	.	.	.	.	.	.	.	.	.	.	.
4g\	-tus	ma-	-żał	rę-	-zus	-ka-	Ma-	-ły	-wiedz	-dzia-	-my	-gos-	4b-\	-tus	ma-	-żał	rę-	-zus	-ka-	Ma-	-ły	-wiedz	-dzia-	-my	-gos-	4dd\	-tus	ma-	-żał	rę-	-zus	-ka-	Ma-	-ły	-wiedz	-dzia-	-my	-gos-	4gg\	-tus	ma-	-żał	rę-	-zus	-ka-	Ma-	-ły	-wiedz	-dzia-	-my	-gos-	.	.	.	.	.	.	.	.	.	.	.	.	.	.	.	.	.	.	.	.	.	.	.	.	.	.	.	.	.	.	.	.	.	.	.	.	.	.	.	.	.	.	.	.	.	.	.	.	.	.	.	.
!	!	!	!	!	!	!	!	!	!	!	!	!	!	!	!	!	!	!	!	!	!	!	!	!	!	!	!	!	!	!	!	!	!	!	!	!	!	!	!LO:TX:t=P:problem:# below	!	!	!	!	!	!	!	!	!	!	!	!	!	!	!	!	!	!	!	!	!	!	!	!	!	!	!	!	!	!	!	!	!	!	!	!	!	!	!	!	!	!	!	!	!	!	!	!	!	!	!	!	!	!	!	!	!	!	!	!	!	!	!	!
4d\	zmart-	-my	trzy	-ce	Na-	-zał	-ri-	Chriſ-	nam	-ła	wszys-	-my	4a\	zmart-	-my	trzy	-ce	Na-	-zał	-ri-	Chriſ-	nam	-ła	wszys-	-my	4dd\	zmart-	-my	trzy	-ce	Na-	-zał	-ri-	Chriſ-	nam	-ła	wszys-	-my	4ff#X\	zmart-	-my	trzy	-ce	Na-	-zał	-ri-	Chriſ-	nam	-ła	wszys-	-my	.	.	.	.	.	.	.	.	.	.	.	.	.	.	.	.	.	.	.	.	.	.	.	.	.	.	.	.	.	.	.	.	.	.	.	.	.	.	.	.	.	.	.	.	.	.	.	.	.	.	.	.
4d\	-wych-	zmart-	dni	no-	-za-	nam	-e	-ta	Ma-	go	-cy	po-	4a\	-wych-	zmart-	dni	no-	-za-	nam	-e	-ta	Ma-	go	-cy	po-	4dd\	-wych-	zmart-	dni	no-	-za-	nam	-e	-ta	Ma-	go	-cy	po-	4ff#\	-wych-	zmart-	dni	no-	-za-	nam	-e	-ta	Ma-	go	-cy	po-	.	.	.	.	.	.	.	.	.	.	.	.	.	.	.	.	.	.	.	.	.	.	.	.	.	.	.	.	.	.	.	.	.	.	.	.	.	.	.	.	.	.	.	.	.	.	.	.	.	.	.	.
=4-	=4-	=4-	=4-	=4-	=4-	=4-	=4-	=4-	=4-	=4-	=4-	=4-	=4-	=4-	=4-	=4-	=4-	=4-	=4-	=4-	=4-	=4-	=4-	=4-	=4-	=4-	=4-	=4-	=4-	=4-	=4-	=4-	=4-	=4-	=4-	=4-	=4-	=4-	=4-	=4-	=4-	=4-	=4-	=4-	=4-	=4-	=4-	=4-	=4-	=4-	=4-	=4-	=4-	=4-	=4-	=4-	=4-	=4-	=4-	=4-	=4-	=4-	=4-	=4-	=4-	=4-	=4-	=4-	=4-	=4-	=4-	=4-	=4-	=4-	=4-	=4-	=4-	=4-	=4-	=4-	=4-	=4-	=4-	=4-	=4-	=4-	=4-	=4-	=4-	=4-	=4-	=4-	=4-	=4-	=4-	=4-	=4-	=4-	=4-	=4-	=4-	=4-	=4-
8G/L	-wſtan	-wych	w gro-	-gi	-ren-	ſwo-	posz-	na-	-ri-	po	we-	-żą-	4b-\	-wſtan	-wych	w gro-	-gi	-ren-	ſwo-	posz-	na-	-ri-	po	we-	-żą-	4b-\	-wſtan	-wych	w gro-	-gi	-ren-	ſwo-	posz-	na-	-ri-	po	we-	-żą-	4gg\	-wſtan	-wych	w gro-	-gi	-ren-	ſwo-	posz-	na-	-ri-	po	we-	-żą-	.	.	.	.	.	.	.	.	.	.	.	.	.	.	.	.	.	.	.	.	.	.	.	.	.	.	.	.	.	.	.	.	.	.	.	.	.	.	.	.	.	.	.	.	.	.	.	.	.	.	.	.
8A/	.	.	.	.	.	.	.	.	.	.	.	.	.	.	.	.	.	.	.	.	.	.	.	.	.	.	.	.	.	.	.	.	.	.	.	.	.	.	.	.	.	.	.	.	.	.	.	.	.	.	.	.	.	.	.	.	.	.	.	.	.	.	.	.	.	.	.	.	.	.	.	.	.	.	.	.	.	.	.	.	.	.	.	.	.	.	.	.	.	.	.	.	.	.	.	.	.	.	.	.	.	.	.
8B-/	.	pow-	.	o-	.	-ię	.	-ma-	.	mę-	-se-	-da-	4g\	.	pow-	.	o-	.	-ię	.	-ma-	.	mę-	-se-	-da-	4dd\	.	pow-	.	o-	.	-ię	.	-ma-	.	mę-	-se-	-da-	4gg\	.	pow-	.	o-	.	-ię	.	-ma-	.	mę-	-se-	-da-	.	.	.	.	.	.	.	.	.	.	.	.	.	.	.	.	.	.	.	.	.	.	.	.	.	.	.	.	.	.	.	.	.	.	.	.	.	.	.	.	.	.	.	.	.	.	.	.	.	.	.	.
8c/J	.	.	.	.	.	.	.	.	.	.	.	.	.	.	.	.	.	.	.	.	.	.	.	.	.	.	.	.	.	.	.	.	.	.	.	.	.	.	.	.	.	.	.	.	.	.	.	.	.	.	.	.	.	.	.	.	.	.	.	.	.	.	.	.	.	.	.	.	.	.	.	.	.	.	.	.	.	.	.	.	.	.	.	.	.	.	.	.	.	.	.	.	.	.	.	.	.	.	.	.	.	.	.
2d\	iest	-stać	-bie	-bie	-ski	moc	-ły	-zać	-a	-ce	-li	-li	2a\	iest	-stać	-bie	-bie	-ski	moc	-ły	-zać	-a	-ce	-li	-li	2dd\	iest	-stać	-bie	-bie	-ski	moc	-ły	-zać	-a	-ce	-li	-li	2dd\	iest	-stać	-bie	-bie	-ski	moc	-ły	-zać	-a	-ce	-li	-li	.	.	.	.	.	.	.	.	.	.	.	.	.	.	.	.	.	.	.	.	.	.	.	.	.	.	.	.	.	.	.	.	.	.	.	.	.	.	.	.	.	.	.	.	.	.	.	.	.	.	.	.
=5-	=5-	=5-	=5-	=5-	=5-	=5-	=5-	=5-	=5-	=5-	=5-	=5-	=5-	=5-	=5-	=5-	=5-	=5-	=5-	=5-	=5-	=5-	=5-	=5-	=5-	=5-	=5-	=5-	=5-	=5-	=5-	=5-	=5-	=5-	=5-	=5-	=5-	=5-	=5-	=5-	=5-	=5-	=5-	=5-	=5-	=5-	=5-	=5-	=5-	=5-	=5-	=5-	=5-	=5-	=5-	=5-	=5-	=5-	=5-	=5-	=5-	=5-	=5-	=5-	=5-	=5-	=5-	=5-	=5-	=5-	=5-	=5-	=5-	=5-	=5-	=5-	=5-	=5-	=5-	=5-	=5-	=5-	=5-	=5-	=5-	=5-	=5-	=5-	=5-	=5-	=5-	=5-	=5-	=5-	=5-	=5-	=5-	=5-	=5-	=5-	=5-	=5-	=5-
0r	.	.	.	.	.	.	.	.	.	.	.	.	0r	.	.	.	.	.	.	.	.	.	.	.	.	0r	.	.	.	.	.	.	.	.	.	.	.	.	0r	.	.	.	.	.	.	.	.	.	.	.	.	2g\	al-	al-	al-	al-	al-	al-	al-	al-	al-	al-	al-	al-	2b-\	al-	al-	al-	al-	al-	al-	al-	al-	al-	al-	al-	al-	2.dd\	al-	al-	al-	al-	al-	al-	al-	al-	al-	al-	al-	al-	2gg\	al-	al-	al-	al-	al-	al-	al-	al-	al-	al-	al-	al-
!	!	!	!	!	!	!	!	!	!	!	!	!	!	!	!	!	!	!	!	!	!	!	!	!	!	!	!	!	!	!	!	!	!	!	!	!	!	!	!	!	!	!	!	!	!	!	!	!	!	!	!	!	!	!	!	!	!	!	!	!	!	!	!	!	!	!	!	!	!	!	!	!	!	!	!	!	!	!	!	!	!	!	!	!	!	!	!	!	!	!	!LO:TX:t=P:problem:# below	!	!	!	!	!	!	!	!	!	!	!	!
.	.	.	.	.	.	.	.	.	.	.	.	.	.	.	.	.	.	.	.	.	.	.	.	.	.	.	.	.	.	.	.	.	.	.	.	.	.	.	.	.	.	.	.	.	.	.	.	.	.	.	.	2d\	-l(e)-	-l(e)-	-l(e)-	-l(e)-	-l(e)-	-l(e)-	-l(e)-	-l(e)-	-l(e)-	-l(e)-	-l(e)-	-l(e)-	2a\	-l(e)-	-l(e)-	-l(e)-	-l(e)-	-l(e)-	-l(e)-	-l(e)-	-l(e)-	-l(e)-	-l(e)-	-l(e)-	-l(e)-	.	.	.	.	.	.	.	.	.	.	.	.	.	2ff#X\	-l(e)-	-l(e)-	-l(e)-	-l(e)-	-l(e)-	-l(e)-	-l(e)-	-l(e)-	-l(e)-	-l(e)-	-l(e)-	-l(e)-
.	.	.	.	.	.	.	.	.	.	.	.	.	.	.	.	.	.	.	.	.	.	.	.	.	.	.	.	.	.	.	.	.	.	.	.	.	.	.	.	.	.	.	.	.	.	.	.	.	.	.	.	.	.	.	.	.	.	.	.	.	.	.	.	.	.	.	.	.	.	.	.	.	.	.	.	.	.	4a\	-l(e)-	-l(e)-	-l(e)-	-l(e)-	-l(e)-	-l(e)-	-l(e)-	-l(e)-	-l(e)-	-l(e)-	-l(e)-	-l(e)-	.	.	.	.	.	.	.	.	.	.	.	.	.
=6-	=6-	=6-	=6-	=6-	=6-	=6-	=6-	=6-	=6-	=6-	=6-	=6-	=6-	=6-	=6-	=6-	=6-	=6-	=6-	=6-	=6-	=6-	=6-	=6-	=6-	=6-	=6-	=6-	=6-	=6-	=6-	=6-	=6-	=6-	=6-	=6-	=6-	=6-	=6-	=6-	=6-	=6-	=6-	=6-	=6-	=6-	=6-	=6-	=6-	=6-	=6-	=6-	=6-	=6-	=6-	=6-	=6-	=6-	=6-	=6-	=6-	=6-	=6-	=6-	=6-	=6-	=6-	=6-	=6-	=6-	=6-	=6-	=6-	=6-	=6-	=6-	=6-	=6-	=6-	=6-	=6-	=6-	=6-	=6-	=6-	=6-	=6-	=6-	=6-	=6-	=6-	=6-	=6-	=6-	=6-	=6-	=6-	=6-	=6-	=6-	=6-	=6-	=6-
.	.	.	.	.	.	.	.	.	.	.	.	.	.	.	.	.	.	.	.	.	.	.	.	.	.	.	.	.	.	.	.	.	.	.	.	.	.	.	.	.	.	.	.	.	.	.	.	.	.	.	.	8G/L	-(lu)-	-(lu)-	-(lu)-	-(lu)-	-(lu)-	-(lu)-	-(lu)-	-(lu)-	-(lu)-	-(lu)-	-(lu)-	-(lu)-	4.g\	-(lu)-	-(lu)-	-(lu)-	-(lu)-	-(lu)-	-(lu)-	-(lu)-	-(lu)-	-(lu)-	-(lu)-	-(lu)-	-(lu)-	4.b-\	-(lu)-	-(lu)-	-(lu)-	-(lu)-	-(lu)-	-(lu)-	-(lu)-	-(lu)-	-(lu)-	-(lu)-	-(lu)-	-(lu)-	2gg\	-(lu)-	-(lu)-	-(lu)-	-(lu)-	-(lu)-	-(lu)-	-(lu)-	-(lu)-	-(lu)-	-(lu)-	-(lu)-	-(lu)-
.	.	.	.	.	.	.	.	.	.	.	.	.	.	.	.	.	.	.	.	.	.	.	.	.	.	.	.	.	.	.	.	.	.	.	.	.	.	.	.	.	.	.	.	.	.	.	.	.	.	.	.	8A/	.	.	.	.	.	.	.	.	.	.	.	.	.	.	.	.	.	.	.	.	.	.	.	.	.	.	.	.	.	.	.	.	.	.	.	.	.	.	.	.	.	.	.	.	.	.	.	.	.	.	.
.	.	.	.	.	.	.	.	.	.	.	.	.	.	.	.	.	.	.	.	.	.	.	.	.	.	.	.	.	.	.	.	.	.	.	.	.	.	.	.	.	.	.	.	.	.	.	.	.	.	.	.	8B-/	.	.	.	.	.	.	.	.	.	.	.	.	.	.	.	.	.	.	.	.	.	.	.	.	.	.	.	.	.	.	.	.	.	.	.	.	.	.	.	.	.	.	.	.	.	.	.	.	.	.	.
.	.	.	.	.	.	.	.	.	.	.	.	.	.	.	.	.	.	.	.	.	.	.	.	.	.	.	.	.	.	.	.	.	.	.	.	.	.	.	.	.	.	.	.	.	.	.	.	.	.	.	.	8c/J	.	.	.	.	.	.	.	.	.	.	.	.	8b-\	.	.	.	.	.	.	.	.	.	.	.	.	8cc\	.	.	.	.	.	.	.	.	.	.	.	.	.	.	.	.	.	.	.	.	.	.	.	.	.
.	.	.	.	.	.	.	.	.	.	.	.	.	.	.	.	.	.	.	.	.	.	.	.	.	.	.	.	.	.	.	.	.	.	.	.	.	.	.	.	.	.	.	.	.	.	.	.	.	.	.	.	2d\	-(i)a	-(i)a	-(i)a	-(i)a	-(i)a	-(i)a	-(i)a	-(i)a	-(i)a	-(i)a	-(i)a	-(i)a	2a\	-(i)a	-(i)a	-(i)a	-(i)a	-(i)a	-(i)a	-(i)a	-(i)a	-(i)a	-(i)a	-(i)a	-(i)a	2dd\	-(i)a	-(i)a	-(i)a	-(i)a	-(i)a	-(i)a	-(i)a	-(i)a	-(i)a	-(i)a	-(i)a	-(i)a	2dd\	-(i)a	-(i)a	-(i)a	-(i)a	-(i)a	-(i)a	-(i)a	-(i)a	-(i)a	-(i)a	-(i)a	-(i)a
=7-	=7-	=7-	=7-	=7-	=7-	=7-	=7-	=7-	=7-	=7-	=7-	=7-	=7-	=7-	=7-	=7-	=7-	=7-	=7-	=7-	=7-	=7-	=7-	=7-	=7-	=7-	=7-	=7-	=7-	=7-	=7-	=7-	=7-	=7-	=7-	=7-	=7-	=7-	=7-	=7-	=7-	=7-	=7-	=7-	=7-	=7-	=7-	=7-	=7-	=7-	=7-	=7-	=7-	=7-	=7-	=7-	=7-	=7-	=7-	=7-	=7-	=7-	=7-	=7-	=7-	=7-	=7-	=7-	=7-	=7-	=7-	=7-	=7-	=7-	=7-	=7-	=7-	=7-	=7-	=7-	=7-	=7-	=7-	=7-	=7-	=7-	=7-	=7-	=7-	=7-	=7-	=7-	=7-	=7-	=7-	=7-	=7-	=7-	=7-	=7-	=7-	=7-	=7-
2g\	al-	al-	al-	al-	al-	al-	al-	al-	al-	al-	al-	al-	2b-\	al-	al-	al-	al-	al-	al-	al-	al-	al-	al-	al-	al-	2.dd\	al-	al-	al-	al-	al-	al-	al-	al-	al-	al-	al-	al-	2gg\	al-	al-	al-	al-	al-	al-	al-	al-	al-	al-	al-	al-	0r	.	.	.	.	.	.	.	.	.	.	.	.	0r	.	.	.	.	.	.	.	.	.	.	.	.	0r	.	.	.	.	.	.	.	.	.	.	.	.	0r	.	.	.	.	.	.	.	.	.	.	.	.
!	!	!	!	!	!	!	!	!	!	!	!	!	!	!	!	!	!	!	!	!	!	!	!	!	!	!	!	!	!	!	!	!	!	!	!	!	!	!	!LO:TX:t=P:problem:# below	!	!	!	!	!	!	!	!	!	!	!	!	!	!	!	!	!	!	!	!	!	!	!	!	!	!	!	!	!	!	!	!	!	!	!	!	!	!	!	!	!	!	!	!	!	!	!	!	!	!	!	!	!	!	!	!	!	!	!	!	!	!	!	!
2d\	-l(e)-	-l(e)-	-l(e)-	-l(e)-	-l(e)-	-l(e)-	-l(e)-	-l(e)-	-l(e)-	-l(e)-	-l(e)-	-l(e)-	2a\	-le-	-l(e)-	-l(e)-	-l(e)-	-l(e)-	-l(e)-	-l(e)-	-l(e)-	-l(e)-	-l(e)-	-l(e)-	-l(e)-	.	.	.	.	.	.	.	.	.	.	.	.	.	2ff#X\	-l(e)-	-l(e)-	-l(e)-	-l(e)-	-l(e)-	-l(e)-	-l(e)-	-l(e)-	-l(e)-	-l(e)-	-l(e)-	-l(e)-	.	.	.	.	.	.	.	.	.	.	.	.	.	.	.	.	.	.	.	.	.	.	.	.	.	.	.	.	.	.	.	.	.	.	.	.	.	.	.	.	.	.	.	.	.	.	.	.	.	.	.	.
.	.	.	.	.	.	.	.	.	.	.	.	.	.	.	.	.	.	.	.	.	.	.	.	.	.	4a\	-l(e)-	-l(e)-	-l(e)-	-l(e)-	-l(e)-	-l(e)-	-l(e)-	-l(e)-	-l(e)-	-l(e)-	-l(e)-	-l(e)-	.	.	.	.	.	.	.	.	.	.	.	.	.	.	.	.	.	.	.	.	.	.	.	.	.	.	.	.	.	.	.	.	.	.	.	.	.	.	.	.	.	.	.	.	.	.	.	.	.	.	.	.	.	.	.	.	.	.	.	.	.	.	.	.	.
=8-	=8-	=8-	=8-	=8-	=8-	=8-	=8-	=8-	=8-	=8-	=8-	=8-	=8-	=8-	=8-	=8-	=8-	=8-	=8-	=8-	=8-	=8-	=8-	=8-	=8-	=8-	=8-	=8-	=8-	=8-	=8-	=8-	=8-	=8-	=8-	=8-	=8-	=8-	=8-	=8-	=8-	=8-	=8-	=8-	=8-	=8-	=8-	=8-	=8-	=8-	=8-	=8-	=8-	=8-	=8-	=8-	=8-	=8-	=8-	=8-	=8-	=8-	=8-	=8-	=8-	=8-	=8-	=8-	=8-	=8-	=8-	=8-	=8-	=8-	=8-	=8-	=8-	=8-	=8-	=8-	=8-	=8-	=8-	=8-	=8-	=8-	=8-	=8-	=8-	=8-	=8-	=8-	=8-	=8-	=8-	=8-	=8-	=8-	=8-	=8-	=8-	=8-	=8-
8G/L	-(lu)-	-(lu)-	-(lu)-	-(lu)-	-(lu)-	-(lu)-	-(lu)-	-(lu)-	-(lu)-	-(lu)-	-(lu)-	-(lu)-	4.g\	-lu-	-(lu)-	-(lu)-	-(lu)-	-(lu)-	-(lu)-	-(lu)-	-(lu)-	-(lu)-	-(lu)-	-(lu)-	-(lu)-	4.b-\	-(lu)-	-(lu)-	-(lu)-	-(lu)-	-(lu)-	-(lu)-	-(lu)-	-(lu)-	-(lu)-	-(lu)-	-(lu)-	-(lu)-	2gg\	-(lu)-	-(lu)-	-(lu)-	-(lu)-	-(lu)-	-(lu)-	-(lu)-	-(lu)-	-(lu)-	-(lu)-	-(lu)-	-(lu)-	.	.	.	.	.	.	.	.	.	.	.	.	.	.	.	.	.	.	.	.	.	.	.	.	.	.	.	.	.	.	.	.	.	.	.	.	.	.	.	.	.	.	.	.	.	.	.	.	.	.	.	.
8A/	.	.	.	.	.	.	.	.	.	.	.	.	.	.	.	.	.	.	.	.	.	.	.	.	.	.	.	.	.	.	.	.	.	.	.	.	.	.	.	.	.	.	.	.	.	.	.	.	.	.	.	.	.	.	.	.	.	.	.	.	.	.	.	.	.	.	.	.	.	.	.	.	.	.	.	.	.	.	.	.	.	.	.	.	.	.	.	.	.	.	.	.	.	.	.	.	.	.	.	.	.	.	.
8B-/	.	.	.	.	.	.	.	.	.	.	.	.	.	.	.	.	.	.	.	.	.	.	.	.	.	.	.	.	.	.	.	.	.	.	.	.	.	.	.	.	.	.	.	.	.	.	.	.	.	.	.	.	.	.	.	.	.	.	.	.	.	.	.	.	.	.	.	.	.	.	.	.	.	.	.	.	.	.	.	.	.	.	.	.	.	.	.	.	.	.	.	.	.	.	.	.	.	.	.	.	.	.	.
8c/J	.	.	.	.	.	.	.	.	.	.	.	.	8b-\	.	.	.	.	.	.	.	.	.	.	.	.	8cc\	.	.	.	.	.	.	.	.	.	.	.	.	.	.	.	.	.	.	.	.	.	.	.	.	.	.	.	.	.	.	.	.	.	.	.	.	.	.	.	.	.	.	.	.	.	.	.	.	.	.	.	.	.	.	.	.	.	.	.	.	.	.	.	.	.	.	.	.	.	.	.	.	.	.	.	.	.
2d\	-(i)a	-(i)a	-(i)a	-(i)a	-(i)a	-(i)a	-(i)a	-(i)a	-(i)a	-(i)a	-(i)a	-(i)a	2a\	-ia	-(i)a	-(i)a	-(i)a	-(i)a	-(i)a	-(i)a	-(i)a	-(i)a	-(i)a	-(i)a	-(i)a	2dd\	-(i)a	-(i)a	-(i)a	-(i)a	-(i)a	-(i)a	-(i)a	-(i)a	-(i)a	-(i)a	-(i)a	-(i)a	2dd\	-(i)a	-(i)a	-(i)a	-(i)a	-(i)a	-(i)a	-(i)a	-(i)a	-(i)a	-(i)a	-(i)a	-(i)a	.	.	.	.	.	.	.	.	.	.	.	.	.	.	.	.	.	.	.	.	.	.	.	.	.	.	.	.	.	.	.	.	.	.	.	.	.	.	.	.	.	.	.	.	.	.	.	.	.	.	.	.
=9-	=9-	=9-	=9-	=9-	=9-	=9-	=9-	=9-	=9-	=9-	=9-	=9-	=9-	=9-	=9-	=9-	=9-	=9-	=9-	=9-	=9-	=9-	=9-	=9-	=9-	=9-	=9-	=9-	=9-	=9-	=9-	=9-	=9-	=9-	=9-	=9-	=9-	=9-	=9-	=9-	=9-	=9-	=9-	=9-	=9-	=9-	=9-	=9-	=9-	=9-	=9-	=9-	=9-	=9-	=9-	=9-	=9-	=9-	=9-	=9-	=9-	=9-	=9-	=9-	=9-	=9-	=9-	=9-	=9-	=9-	=9-	=9-	=9-	=9-	=9-	=9-	=9-	=9-	=9-	=9-	=9-	=9-	=9-	=9-	=9-	=9-	=9-	=9-	=9-	=9-	=9-	=9-	=9-	=9-	=9-	=9-	=9-	=9-	=9-	=9-	=9-	=9-	=9-
0r	.	.	.	.	.	.	.	.	.	.	.	.	0r	.	.	.	.	.	.	.	.	.	.	.	.	0r	.	.	.	.	.	.	.	.	.	.	.	.	0r	.	.	.	.	.	.	.	.	.	.	.	.	4f\	nam	Z Pa-	dał	na	Pan	wſtał	dro-	ie-	gdzieś	no-	ia-	te-	4g\	nam	Z Pa-	dał	na	Pan	wſtał	dro-	ie-	gdzieś	no-	ia-	te-	4cc\	nam	Z Pa-	dał	na	Pan	wſtał	dro-	ie-	gdzieś	no-	ia-	te-	4cc\	nam	Z Pa-	dał	na	Pan	wſtał	dro-	ie-	gdzieś	no-	ia-	te-
.	.	.	.	.	.	.	.	.	.	.	.	.	.	.	.	.	.	.	.	.	.	.	.	.	.	.	.	.	.	.	.	.	.	.	.	.	.	.	.	.	.	.	.	.	.	.	.	.	.	.	.	4B-/	na	-nem	Bog	zba-	Bog	zmart-	-gie	-mu	Chriſ-	-sił	-ko	-gos-	4b-\	na	-nem	Bog	zba-	Bog	zmart-	-gie	-mu	Chriſ-	-sił	-ko	-gos-	4b-\	na	-nem	Bog	zba-	Bog	zmart-	-gie	-mu	Chriſ-	-sił	-ko	-gos-	4dd\	na	-nem	Bog	zba-	Bog	zmart-	-gie	-mu	Chriſ-	-sił	-ko	-gos-
.	.	.	.	.	.	.	.	.	.	.	.	.	.	.	.	.	.	.	.	.	.	.	.	.	.	.	.	.	.	.	.	.	.	.	.	.	.	.	.	.	.	.	.	.	.	.	.	.	.	.	.	4f\	przy-	Bo-	prze-	-wie-	Chrzes-	-wych	mas-	część	-ta	cho-	w nie-	-my	4a\	przy-	Bo-	prze-	-wie-	Chrzes-	-wych	mas-	część	-ta	cho-	w nie-	-my	4cc\	przy-	Bo-	prze-	-wie-	Chrzes-	-wych	mas-	część	-ta	cho-	w nie-	-my	4cc\	przy-	Bo-	prze-	-wie-	Chrzes-	-wych	mas-	część	-ta	cho-	w nie-	-my
.	.	.	.	.	.	.	.	.	.	.	.	.	.	.	.	.	.	.	.	.	.	.	.	.	.	.	.	.	.	.	.	.	.	.	.	.	.	.	.	.	.	.	.	.	.	.	.	.	.	.	.	4g\	-kład	-giem	-bić	-nie	-ci-	na	-ci	y	wi-	-rą-	-bie	do-	4g\	-kład	-giem	-bić	-nie	-ci-	na	-ci	y	wi-	-rą-	-bie	do-	4g/	-kład	-giem	-bić	-nie	-ci-	na	-ci	y	wi-	-rą-	-bie	do-	4b-/	-kład	-giem	-bić	-nie	-ci-	na	-ci	y	wi-	-rą-	-bie	do-
=10-	=10-	=10-	=10-	=10-	=10-	=10-	=10-	=10-	=10-	=10-	=10-	=10-	=10-	=10-	=10-	=10-	=10-	=10-	=10-	=10-	=10-	=10-	=10-	=10-	=10-	=10-	=10-	=10-	=10-	=10-	=10-	=10-	=10-	=10-	=10-	=10-	=10-	=10-	=10-	=10-	=10-	=10-	=10-	=10-	=10-	=10-	=10-	=10-	=10-	=10-	=10-	=10-	=10-	=10-	=10-	=10-	=10-	=10-	=10-	=10-	=10-	=10-	=10-	=10-	=10-	=10-	=10-	=10-	=10-	=10-	=10-	=10-	=10-	=10-	=10-	=10-	=10-	=10-	=10-	=10-	=10-	=10-	=10-	=10-	=10-	=10-	=10-	=10-	=10-	=10-	=10-	=10-	=10-	=10-	=10-	=10-	=10-	=10-	=10-	=10-	=10-	=10-	=10-
!	!	!	!	!	!	!	!	!	!	!	!	!	!	!	!	!	!	!	!	!	!	!	!	!	!	!	!	!	!	!	!	!	!	!	!	!	!	!	!	!	!	!	!	!	!	!	!	!	!	!	!	!	!	!	!	!	!	!	!	!	!	!	!	!	!LO:TX:t=P:problem:# above	!	!	!	!	!	!	!	!	!	!	!	!	!	!	!	!	!	!	!	!	!	!	!	!	!	!	!	!	!	!	!	!	!	!	!	!	!	!
.	.	.	.	.	.	.	.	.	.	.	.	.	.	.	.	.	.	.	.	.	.	.	.	.	.	.	.	.	.	.	.	.	.	.	.	.	.	.	.	.	.	.	.	.	.	.	.	.	.	.	.	4d\	dan	kró-	so-	to-	-an-	wiel-	nio-	chwa-	-dzia-	-giew	A-	-cze-	4f#X\	dan	kró-	so-	to-	-an-	wiel-	nio-	chwa-	-dzia-	-giew	A-	-cze-	4a\	dan	kró-	so-	to-	-an-	wiel-	nio-	chwa-	-dzia-	-giew	A-	-cze-	4a/	dan	kró-	so-	to-	-an-	wiel-	nio-	chwa-	-dzia-	-giew	A-	-cze-
.	.	.	.	.	.	.	.	.	.	.	.	.	.	.	.	.	.	.	.	.	.	.	.	.	.	.	.	.	.	.	.	.	.	.	.	.	.	.	.	.	.	.	.	.	.	.	.	.	.	.	.	4d\	.	-lo-	.	.	.	-ką	.	-łę	.	w rę-	-nie-	-ka-	4f#\	.	-lo-	.	.	.	-ką	.	-łę	.	w rę-	-nie-	-ka-	4a\	.	-lo-	.	.	.	-ką	.	-łę	.	w rę-	-nie-	-ka-	4a/	.	-lo-	.	.	.	-ką	.	-łę	.	w rę-	-nie-	-ka-
!	!	!	!	!	!	!	!	!	!	!	!	!	!	!	!	!	!	!	!	!	!	!	!	!	!	!	!	!	!	!	!	!	!	!	!	!	!	!	!	!	!	!	!	!	!	!	!	!	!	!	!	!	!	!	!	!	!	!	!	!	!	!	!	!	!	!	!	!	!	!	!	!	!	!	!	!	!	!LO:TX:a:t=P:w źródle krzyżyk w roli kasownika:problem	!	!	!	!	!	!	!	!	!	!	!	!	!	!	!	!	!	!	!	!	!	!	!	!	!
!	!	!	!	!	!	!	!	!	!	!	!	!	!	!	!	!	!	!	!	!	!	!	!	!	!	!	!	!	!	!	!	!	!	!	!	!	!	!	!	!	!	!	!	!	!	!	!	!	!	!	!	!	!	!	!	!	!	!	!	!	!	!	!	!	!	!	!	!	!	!	!	!	!	!	!	!	!	!LO:TX:t=P:problem:# below	!	!	!	!	!	!	!	!	!	!	!	!	!	!	!	!	!	!	!	!	!	!	!	!	!
!	!	!	!	!	!	!	!	!	!	!	!	!	!	!	!	!	!	!	!	!	!	!	!	!	!	!	!	!	!	!	!	!	!	!	!	!	!	!	!	!	!	!	!	!	!	!	!	!	!	!	!	!	!	!	!	!	!	!	!	!	!	!	!	!	!	!	!	!	!	!	!	!	!	!	!	!	!	!LO:N:acc=#	!	!	!	!	!	!	!	!	!	!	!	!	!	!	!	!	!	!	!	!	!	!	!	!	!
.	.	.	.	.	.	.	.	.	.	.	.	.	.	.	.	.	.	.	.	.	.	.	.	.	.	.	.	.	.	.	.	.	.	.	.	.	.	.	.	.	.	.	.	.	.	.	.	.	.	.	.	2G/	iest	-wać	-bie	-bie	-ski	noc	-sły	dać	-ła	-ce	-li	-li	2g\	iest	-wać	-bie	-bie	-ski	noc	-sły	dać	-ła	-ce	-li	-li	2bn\	iest	-wać	-bie	-bie	-ski	noc	-sły	dać	-ła	-ce	-li	-li	2g/	iest	-wać	-bie	-bie	-ski	noc	-sły	dać	-ła	-ce	-li	-li
=11-	=11-	=11-	=11-	=11-	=11-	=11-	=11-	=11-	=11-	=11-	=11-	=11-	=11-	=11-	=11-	=11-	=11-	=11-	=11-	=11-	=11-	=11-	=11-	=11-	=11-	=11-	=11-	=11-	=11-	=11-	=11-	=11-	=11-	=11-	=11-	=11-	=11-	=11-	=11-	=11-	=11-	=11-	=11-	=11-	=11-	=11-	=11-	=11-	=11-	=11-	=11-	=11-	=11-	=11-	=11-	=11-	=11-	=11-	=11-	=11-	=11-	=11-	=11-	=11-	=11-	=11-	=11-	=11-	=11-	=11-	=11-	=11-	=11-	=11-	=11-	=11-	=11-	=11-	=11-	=11-	=11-	=11-	=11-	=11-	=11-	=11-	=11-	=11-	=11-	=11-	=11-	=11-	=11-	=11-	=11-	=11-	=11-	=11-	=11-	=11-	=11-	=11-	=11-
4f\	nam	Z Pa-	dał	na	Pan	wſtał	dro-	ie-	gdzieś	no-	ia-	te-	4a\	nam	Z Pa-	dał	na	Pan	wſtał	dro-	ie-	gdzieś	no-	ia-	te-	4cc\	nam	Z Pa-	dał	na	Pan	wſtał	dro-	ie-	gdzieś	no-	ia-	te-	4cc\	nam	Z Pa-	dał	na	Pan	wſtał	dro-	ie-	gdzieś	no-	ia-	te-	0r	.	.	.	.	.	.	.	.	.	.	.	.	0r	.	.	.	.	.	.	.	.	.	.	.	.	0r	.	.	.	.	.	.	.	.	.	.	.	.	0r	.	.	.	.	.	.	.	.	.	.	.	.
4B-/	na	-nem	Bog	zba-	Bog	zmart-	-gie	-mu	Chriſ-	-sił	-ko	-gos-	4b-\	na	-nem	Bog	zba-	Bog	zmart-	-gie	-mu	Chriſ-	-sił	-ko	-gos-	4b-\	na	-nem	Bog	zba-	Bog	zmart-	-gie	-mu	Chriſ-	-sił	-ko	-gos-	4dd\	na	-nem	Bog	zba-	Bog	zmart-	-gie	-mu	Chriſ-	-sił	-ko	-gos-	.	.	.	.	.	.	.	.	.	.	.	.	.	.	.	.	.	.	.	.	.	.	.	.	.	.	.	.	.	.	.	.	.	.	.	.	.	.	.	.	.	.	.	.	.	.	.	.	.	.	.	.
4f\	przy-	Bo-	prze-	-wie-	Chrzes-	-wych	mas-	część	-ta	cho-	w nie-	-my	4a\	przy-	Bo-	prze-	-wie-	Chrzes-	-wych	mas-	część	-ta	cho-	w nie-	-my	4cc\	przy-	Bo-	prze-	-wie-	Chrzes-	-wych	mas-	część	-ta	cho-	w nie-	-my	4cc\	przy-	Bo-	prze-	-wie-	Chrzes-	-wych	mas-	część	-ta	cho-	w nie-	-my	.	.	.	.	.	.	.	.	.	.	.	.	.	.	.	.	.	.	.	.	.	.	.	.	.	.	.	.	.	.	.	.	.	.	.	.	.	.	.	.	.	.	.	.	.	.	.	.	.	.	.	.
4g\	-kład	-giem	-bić	-nie	-ci-	na	-ci	y	wi-	-rą-	-bie	do-	4g\	-kład	-giem	-bić	-nie	-ci-	na	-ci	y	wi-	-rą-	-bie	do-	4g/	-kład	-giem	-bić	-nie	-ci-	na	-ci	y	wi-	-rą-	-bie	do-	4b-/	-kład	-giem	-bić	-nie	-ci-	na	-ci	y	wi-	-rą-	-bie	do-	.	.	.	.	.	.	.	.	.	.	.	.	.	.	.	.	.	.	.	.	.	.	.	.	.	.	.	.	.	.	.	.	.	.	.	.	.	.	.	.	.	.	.	.	.	.	.	.	.	.	.	.
=12-	=12-	=12-	=12-	=12-	=12-	=12-	=12-	=12-	=12-	=12-	=12-	=12-	=12-	=12-	=12-	=12-	=12-	=12-	=12-	=12-	=12-	=12-	=12-	=12-	=12-	=12-	=12-	=12-	=12-	=12-	=12-	=12-	=12-	=12-	=12-	=12-	=12-	=12-	=12-	=12-	=12-	=12-	=12-	=12-	=12-	=12-	=12-	=12-	=12-	=12-	=12-	=12-	=12-	=12-	=12-	=12-	=12-	=12-	=12-	=12-	=12-	=12-	=12-	=12-	=12-	=12-	=12-	=12-	=12-	=12-	=12-	=12-	=12-	=12-	=12-	=12-	=12-	=12-	=12-	=12-	=12-	=12-	=12-	=12-	=12-	=12-	=12-	=12-	=12-	=12-	=12-	=12-	=12-	=12-	=12-	=12-	=12-	=12-	=12-	=12-	=12-	=12-	=12-
!	!	!	!	!	!	!	!	!	!	!	!	!	!LO:TX:t=P:problem:# above	!	!	!	!	!	!	!	!	!	!	!	!	!	!	!	!	!	!	!	!	!	!	!	!	!	!	!	!	!	!	!	!	!	!	!	!	!	!	!	!	!	!	!	!	!	!	!	!	!	!	!	!	!	!	!	!	!	!	!	!	!	!	!	!	!	!	!	!	!	!	!	!	!	!	!	!	!	!	!	!	!	!	!	!	!	!	!	!	!	!
4d\	dan	kró-	so-	to-	-an-	wiel-	nio-	chwa-	-dzia-	-giew	A-	-cze-	4f#X\	dan	kró-	so-	to-	-an-	wiel-	nio-	chwa-	-dzia-	-giew	A-	-cze-	4a\	dan	kró-	so-	to-	-an-	wiel-	nio-	chwa-	-dzia-	-giew	A-	-cze-	4a/	dan	kró-	so-	to-	-an-	wiel-	nio-	chwa-	-dzia-	-giew	A-	-cze-	.	.	.	.	.	.	.	.	.	.	.	.	.	.	.	.	.	.	.	.	.	.	.	.	.	.	.	.	.	.	.	.	.	.	.	.	.	.	.	.	.	.	.	.	.	.	.	.	.	.	.	.
4d\	.	-lo-	.	.	.	-ką	.	-łę	.	w rę-	-nie-	-ka-	4f#\	.	-lo-	.	.	.	-ką	.	-łę	.	w rę-	-nie-	-ka-	4a\	.	-lo-	.	.	.	-ką	.	-łę	.	w rę-	-nie-	-ka-	4a/	.	-lo-	.	.	.	-ką	.	-łę	.	w rę-	-nie-	-ka-	.	.	.	.	.	.	.	.	.	.	.	.	.	.	.	.	.	.	.	.	.	.	.	.	.	.	.	.	.	.	.	.	.	.	.	.	.	.	.	.	.	.	.	.	.	.	.	.	.	.	.	.
!	!	!	!	!	!	!	!	!	!	!	!	!	!	!	!	!	!	!	!	!	!	!	!	!	!	!LO:TX:a:t=P:w źródle krzyżyk w roli kasownika:problem	!	!	!	!	!	!	!	!	!	!	!	!	!	!	!	!	!	!	!	!	!	!	!	!	!	!	!	!	!	!	!	!	!	!	!	!	!	!	!	!	!	!	!	!	!	!	!	!	!	!	!	!	!	!	!	!	!	!	!	!	!	!	!	!	!	!	!	!	!	!	!	!	!	!	!	!	!
!	!	!	!	!	!	!	!	!	!	!	!	!	!	!	!	!	!	!	!	!	!	!	!	!	!	!LO:TX:t=P:problem:# below	!	!	!	!	!	!	!	!	!	!	!	!	!	!	!	!	!	!	!	!	!	!	!	!	!	!	!	!	!	!	!	!	!	!	!	!	!	!	!	!	!	!	!	!	!	!	!	!	!	!	!	!	!	!	!	!	!	!	!	!	!	!	!	!	!	!	!	!	!	!	!	!	!	!	!	!	!
!	!	!	!	!	!	!	!	!	!	!	!	!	!	!	!	!	!	!	!	!	!	!	!	!	!	!LO:N:acc=#	!	!	!	!	!	!	!	!	!	!	!	!	!	!	!	!	!	!	!	!	!	!	!	!	!	!	!	!	!	!	!	!	!	!	!	!	!	!	!	!	!	!	!	!	!	!	!	!	!	!	!	!	!	!	!	!	!	!	!	!	!	!	!	!	!	!	!	!	!	!	!	!	!	!	!	!	!
2G/	iest	-wać	-bie	-bie	-ski	noc	-sły	dać	-ła	-ce	-li	-li	2g\	iest	-wać	-bie	-bie	-ski	noc	-sły	dać	-ła	-ce	-li	-li	2bn\	iest	-wać	-bie	-bie	-ski	noc	-sły	dać	-ła	-ce	-li	-li	2g/	iest	-wać	-bie	-bie	-ski	noc	-sły	dać	-ła	-ce	-li	-li	.	.	.	.	.	.	.	.	.	.	.	.	.	.	.	.	.	.	.	.	.	.	.	.	.	.	.	.	.	.	.	.	.	.	.	.	.	.	.	.	.	.	.	.	.	.	.	.	.	.	.	.
=13-	=13-	=13-	=13-	=13-	=13-	=13-	=13-	=13-	=13-	=13-	=13-	=13-	=13-	=13-	=13-	=13-	=13-	=13-	=13-	=13-	=13-	=13-	=13-	=13-	=13-	=13-	=13-	=13-	=13-	=13-	=13-	=13-	=13-	=13-	=13-	=13-	=13-	=13-	=13-	=13-	=13-	=13-	=13-	=13-	=13-	=13-	=13-	=13-	=13-	=13-	=13-	=13-	=13-	=13-	=13-	=13-	=13-	=13-	=13-	=13-	=13-	=13-	=13-	=13-	=13-	=13-	=13-	=13-	=13-	=13-	=13-	=13-	=13-	=13-	=13-	=13-	=13-	=13-	=13-	=13-	=13-	=13-	=13-	=13-	=13-	=13-	=13-	=13-	=13-	=13-	=13-	=13-	=13-	=13-	=13-	=13-	=13-	=13-	=13-	=13-	=13-	=13-	=13-
1r	.	.	.	.	.	.	.	.	.	.	.	.	1r	.	.	.	.	.	.	.	.	.	.	.	.	1r	.	.	.	.	.	.	.	.	.	.	.	.	1r	.	.	.	.	.	.	.	.	.	.	.	.	2g\	al-	al-	al-	al-	al-	al-	al-	al-	al-	al-	al-	al-	2.b-\	al-	al-	al-	al-	al-	al-	al-	al-	al-	al-	al-	al-	2.dd\	al-	al-	al-	al-	al-	al-	al-	al-	al-	al-	al-	al-	2gg\	al-	al-	al-	al-	al-	al-	al-	al-	al-	al-	al-	al-
!	!	!	!	!	!	!	!	!	!	!	!	!	!	!	!	!	!	!	!	!	!	!	!	!	!	!	!	!	!	!	!	!	!	!	!	!	!	!	!	!	!	!	!	!	!	!	!	!	!	!	!	!	!	!	!	!	!	!	!	!	!	!	!	!	!	!	!	!	!	!	!	!	!	!	!	!	!	!	!	!	!	!	!	!	!	!	!	!	!	!	!LO:TX:t=P:problem:# below	!	!	!	!	!	!	!	!	!	!	!	!
.	.	.	.	.	.	.	.	.	.	.	.	.	.	.	.	.	.	.	.	.	.	.	.	.	.	.	.	.	.	.	.	.	.	.	.	.	.	.	.	.	.	.	.	.	.	.	.	.	.	.	.	2d\	-l(e)-	-l(e)-	-l(e)-	-l(e)-	-l(e)-	-l(e)-	-l(e)-	-l(e)-	-l(e)-	-l(e)-	-l(e)-	-l(e)-	.	.	.	.	.	.	.	.	.	.	.	.	.	.	.	.	.	.	.	.	.	.	.	.	.	.	2ff#X\	-l(e)-	-l(e)-	-l(e)-	-l(e)-	-l(e)-	-l(e)-	-l(e)-	-l(e)-	-l(e)-	-l(e)-	-l(e)-	-l(e)-
.	.	.	.	.	.	.	.	.	.	.	.	.	.	.	.	.	.	.	.	.	.	.	.	.	.	.	.	.	.	.	.	.	.	.	.	.	.	.	.	.	.	.	.	.	.	.	.	.	.	.	.	.	.	.	.	.	.	.	.	.	.	.	.	.	4a\	-l(e)-	-l(e)-	-l(e)-	-l(e)-	-l(e)-	-l(e)-	-l(e)-	-l(e)-	-l(e)-	-l(e)-	-l(e)-	-l(e)-	4dd\	-l(e)-	-l(e)-	-l(e)-	-l(e)-	-l(e)-	-l(e)-	-l(e)-	-l(e)-	-l(e)-	-l(e)-	-l(e)-	-l(e)-	.	.	.	.	.	.	.	.	.	.	.	.	.
=14-	=14-	=14-	=14-	=14-	=14-	=14-	=14-	=14-	=14-	=14-	=14-	=14-	=14-	=14-	=14-	=14-	=14-	=14-	=14-	=14-	=14-	=14-	=14-	=14-	=14-	=14-	=14-	=14-	=14-	=14-	=14-	=14-	=14-	=14-	=14-	=14-	=14-	=14-	=14-	=14-	=14-	=14-	=14-	=14-	=14-	=14-	=14-	=14-	=14-	=14-	=14-	=14-	=14-	=14-	=14-	=14-	=14-	=14-	=14-	=14-	=14-	=14-	=14-	=14-	=14-	=14-	=14-	=14-	=14-	=14-	=14-	=14-	=14-	=14-	=14-	=14-	=14-	=14-	=14-	=14-	=14-	=14-	=14-	=14-	=14-	=14-	=14-	=14-	=14-	=14-	=14-	=14-	=14-	=14-	=14-	=14-	=14-	=14-	=14-	=14-	=14-	=14-	=14-
4r	.	.	.	.	.	.	.	.	.	.	.	.	4r	.	.	.	.	.	.	.	.	.	.	.	.	4r	.	.	.	.	.	.	.	.	.	.	.	.	4r	.	.	.	.	.	.	.	.	.	.	.	.	2g\	-(lu)-	-(lu)-	-(lu)-	-(lu)-	-(lu)-	-(lu)-	-(lu)-	-(lu)-	-(lu)-	-(lu)-	-(lu)-	-(lu)-	2b-\	-(lu)-	-(lu)-	-(lu)-	-(lu)-	-(lu)-	-(lu)-	-(lu)-	-(lu)-	-(lu)-	-(lu)-	-(lu)-	-(lu)-	4.b-y\	-(lu)-	-(lu)-	-(lu)-	-(lu)-	-(lu)-	-(lu)-	-(lu)-	-(lu)-	-(lu)-	-(lu)-	-(lu)-	-(lu)-	2gg\	-(lu)-	-(lu)-	-(lu)-	-(lu)-	-(lu)-	-(lu)-	-(lu)-	-(lu)-	-(lu)-	-(lu)-	-(lu)-	-(lu)-
!LO:TX:a:t=P:w źródle nuta zamazana:problem	!	!	!	!	!	!	!	!	!	!	!	!	!	!	!	!	!	!	!	!	!	!	!	!	!	!	!	!	!	!	!	!	!	!	!	!	!	!	!	!	!	!	!	!	!	!	!	!	!	!	!	!	!	!	!	!	!	!	!	!	!	!	!	!	!	!	!	!	!	!	!	!	!	!	!	!	!	!	!	!	!	!	!	!	!	!	!	!	!	!	!	!	!	!	!	!	!	!	!	!	!	!	!
4g\	al-	al-	al-	al-	al-	al-	al-	al-	al-	al-	al-	al-	2d/	al-	al-	al-	al-	al-	al-	al-	al-	al-	al-	al-	al-	2b-y\	al-	al-	al-	al-	al-	al-	al-	al-	al-	al-	al-	al-	2dd\	al-	al-	al-	al-	al-	al-	al-	al-	al-	al-	al-	al-	.	.	.	.	.	.	.	.	.	.	.	.	.	.	.	.	.	.	.	.	.	.	.	.	.	.	.	.	.	.	.	.	.	.	.	.	.	.	.	.	.	.	.	.	.	.	.	.	.	.	.	.
.	.	.	.	.	.	.	.	.	.	.	.	.	.	.	.	.	.	.	.	.	.	.	.	.	.	.	.	.	.	.	.	.	.	.	.	.	.	.	.	.	.	.	.	.	.	.	.	.	.	.	.	.	.	.	.	.	.	.	.	.	.	.	.	.	.	.	.	.	.	.	.	.	.	.	.	.	.	8cc\	.	.	.	.	.	.	.	.	.	.	.	.	.	.	.	.	.	.	.	.	.	.	.	.	.
!	!	!	!	!	!	!	!	!	!	!	!	!	!	!	!	!	!	!	!	!	!	!	!	!	!	!	!	!	!	!	!	!	!	!	!	!	!	!	!	!	!	!	!	!	!	!	!	!	!	!	!	!	!	!	!	!	!	!	!	!	!	!	!	!	!	!	!	!	!	!	!	!	!	!	!	!	!	!LO:TX:a:t=P:w źródle nuta poprawiana przez skryptora:problem	!	!	!	!	!	!	!	!	!	!	!	!	!	!	!	!	!	!	!	!	!	!	!	!	!
!LO:TX:t=P:problem:# below	!	!	!	!	!	!	!	!	!	!	!	!	!	!	!	!	!	!	!	!	!	!	!	!	!	!	!	!	!	!	!	!	!	!	!	!	!	!	!	!	!	!	!	!	!	!	!	!	!	!	!	!	!	!	!	!	!	!	!	!	!	!	!	!	!	!	!	!	!	!	!	!	!	!	!	!	!	!	!	!	!	!	!	!	!	!	!	!	!	!	!	!	!	!	!	!	!	!	!	!	!	!	!
2f#X\	-l(e)-	-l(e)-	-l(e)-	-l(e)-	-l(e)-	-l(e)-	-l(e)-	-l(e)-	-l(e)-	-l(e)-	-l(e)-	-l(e)-	.	.	.	.	.	.	.	.	.	.	.	.	.	.	.	.	.	.	.	.	.	.	.	.	.	.	.	.	.	.	.	.	.	.	.	.	.	.	.	2d\	-(i)a	-(i)a	-(i)a	-(i)a	-(i)a	-(i)a	-(i)a	-(i)a	-(i)a	-(i)a	-(i)a	-(i)a	2a\	-(i)a	-(i)a	-(i)a	-(i)a	-(i)a	-(i)a	-(i)a	-(i)a	-(i)a	-(i)a	-(i)a	-(i)a	2dd\	-(i)a	-(i)a	-(i)a	-(i)a	-(i)a	-(i)a	-(i)a	-(i)a	-(i)a	-(i)a	-(i)a	-(i)a	2aa\	-(i)a	-(i)a	-(i)a	-(i)a	-(i)a	-(i)a	-(i)a	-(i)a	-(i)a	-(i)a	-(i)a	-(i)a
.	.	.	.	.	.	.	.	.	.	.	.	.	4d/	-le-	-l(e)-	-l(e)-	-l(e)-	-l(e)-	-l(e)-	-l(e)-	-l(e)-	-l(e)-	-l(e)-	-l(e)-	-l(e)-	4a\	-l(e)-	-l(e)-	-l(e)-	-l(e)-	-l(e)-	-l(e)-	-l(e)-	-l(e)-	-l(e)-	-l(e)-	-l(e)-	-l(e)-	4dd\	-l(e)-	-l(e)-	-l(e)-	-l(e)-	-l(e)-	-l(e)-	-l(e)-	-l(e)-	-l(e)-	-l(e)-	-l(e)-	-l(e)-	.	.	.	.	.	.	.	.	.	.	.	.	.	.	.	.	.	.	.	.	.	.	.	.	.	.	.	.	.	.	.	.	.	.	.	.	.	.	.	.	.	.	.	.	.	.	.	.	.	.	.	.
!LO:PB:g=original	!	!	!	!	!	!	!	!	!	!	!	!	!	!	!	!	!	!	!	!	!	!	!	!	!	!	!	!	!	!	!	!	!	!	!	!	!	!	!	!	!	!	!	!	!	!	!	!	!	!	!	!LO:PB:g=original	!	!	!	!	!	!	!	!	!	!	!	!	!LO:PB:g=original	!	!	!	!	!	!	!	!	!	!	!	!	!LO:PB:g=original	!	!	!	!	!	!	!	!	!	!	!	!	!LO:PB:g=original	!	!	!	!	!	!	!	!	!	!	!	!
=15-	=15-	=15-	=15-	=15-	=15-	=15-	=15-	=15-	=15-	=15-	=15-	=15-	=15-	=15-	=15-	=15-	=15-	=15-	=15-	=15-	=15-	=15-	=15-	=15-	=15-	=15-	=15-	=15-	=15-	=15-	=15-	=15-	=15-	=15-	=15-	=15-	=15-	=15-	=15-	=15-	=15-	=15-	=15-	=15-	=15-	=15-	=15-	=15-	=15-	=15-	=15-	=15-	=15-	=15-	=15-	=15-	=15-	=15-	=15-	=15-	=15-	=15-	=15-	=15-	=15-	=15-	=15-	=15-	=15-	=15-	=15-	=15-	=15-	=15-	=15-	=15-	=15-	=15-	=15-	=15-	=15-	=15-	=15-	=15-	=15-	=15-	=15-	=15-	=15-	=15-	=15-	=15-	=15-	=15-	=15-	=15-	=15-	=15-	=15-	=15-	=15-	=15-	=15-
2g\	-(lu)-	-(lu)-	-(lu)-	-(lu)-	-(lu)-	-(lu)-	-(lu)-	-(lu)-	-(lu)-	-(lu)-	-(lu)-	-(lu)-	2d/	-lu-	-(lu)-	-(lu)-	-(lu)-	-(lu)-	-(lu)-	-(lu)-	-(lu)-	-(lu)-	-(lu)-	-(lu)-	-(lu)-	2b-\	-(lu)-	-(lu)-	-(lu)-	-(lu)-	-(lu)-	-(lu)-	-(lu)-	-(lu)-	-(lu)-	-(lu)-	-(lu)-	-(lu)-	2dd\	-(lu)-	-(lu)-	-(lu)-	-(lu)-	-(lu)-	-(lu)-	-(lu)-	-(lu)-	-(lu)-	-(lu)-	-(lu)-	-(lu)-	4r	.	.	.	.	.	.	.	.	.	.	.	.	4r	.	.	.	.	.	.	.	.	.	.	.	.	4r	.	.	.	.	.	.	.	.	.	.	.	.	4r	.	.	.	.	.	.	.	.	.	.	.	.
.	.	.	.	.	.	.	.	.	.	.	.	.	.	.	.	.	.	.	.	.	.	.	.	.	.	.	.	.	.	.	.	.	.	.	.	.	.	.	.	.	.	.	.	.	.	.	.	.	.	.	.	4g\	al-	al-	al-	al-	al-	al-	al-	al-	al-	al-	al-	al-	2b-\	al-	al-	al-	al-	al-	al-	al-	al-	al-	al-	al-	al-	2dd\	al-	al-	al-	al-	al-	al-	al-	al-	al-	al-	al-	al-	4gg\	al-	al-	al-	al-	al-	al-	al-	al-	al-	al-	al-	al-
!	!	!	!	!	!	!	!	!	!	!	!	!	!	!	!	!	!	!	!	!	!	!	!	!	!	!LO:PB:g=original	!	!	!	!	!	!	!	!	!	!	!	!	!	!	!	!	!	!	!	!	!	!	!	!	!	!	!	!	!	!	!	!	!	!	!	!	!	!	!	!	!	!	!	!	!	!	!	!	!	!	!	!	!	!	!	!	!	!	!	!	!	!	!	!	!	!	!	!	!	!	!	!	!	!	!	!	!
!	!	!	!	!	!	!	!	!	!	!	!	!	!	!	!	!	!	!	!	!	!	!	!	!	!	!	!	!	!	!	!	!	!	!	!	!	!	!	!	!	!	!	!	!	!	!	!	!	!	!	!	!LO:TX:t=P:problem:# below	!	!	!	!	!	!	!	!	!	!	!	!	!	!	!	!	!	!	!	!	!	!	!	!	!	!	!	!	!	!	!	!	!	!	!	!	!	!	!	!	!	!	!	!	!	!	!	!	!	!	!
2d\	-(i)a	-(i)a	-(i)a	-(i)a	-(i)a	-(i)a	-(i)a	-(i)a	-(i)a	-(i)a	-(i)a	-(i)a	2d/	-ia	-(i)a	-(i)a	-(i)a	-(i)a	-(i)a	-(i)a	-(i)a	-(i)a	-(i)a	-(i)a	-(i)a	2a\	-(i)a	-(i)a	-(i)a	-(i)a	-(i)a	-(i)a	-(i)a	-(i)a	-(i)a	-(i)a	-(i)a	-(i)a	2dd\	-(i)a	-(i)a	-(i)a	-(i)a	-(i)a	-(i)a	-(i)a	-(i)a	-(i)a	-(i)a	-(i)a	-(i)a	2f#X\	-l(e)-	-l(e)-	-l(e)-	-l(e)-	-l(e)-	-l(e)-	-l(e)-	-l(e)-	-l(e)-	-l(e)-	-l(e)-	-l(e)-	.	.	.	.	.	.	.	.	.	.	.	.	.	.	.	.	.	.	.	.	.	.	.	.	.	.	2aa\	-l(e)-	-l(e)-	-l(e)-	-l(e)-	-l(e)-	-l(e)-	-l(e)-	-l(e)-	-l(e)-	-l(e)-	-l(e)-	-l(e)-
.	.	.	.	.	.	.	.	.	.	.	.	.	.	.	.	.	.	.	.	.	.	.	.	.	.	.	.	.	.	.	.	.	.	.	.	.	.	.	.	.	.	.	.	.	.	.	.	.	.	.	.	.	.	.	.	.	.	.	.	.	.	.	.	.	4a\	-l(e)-	-l(e)-	-l(e)-	-l(e)-	-l(e)-	-l(e)-	-l(e)-	-l(e)-	-l(e)-	-l(e)-	-l(e)-	-l(e)-	4dd\	-l(e)-	-l(e)-	-l(e)-	-l(e)-	-l(e)-	-l(e)-	-l(e)-	-l(e)-	-l(e)-	-l(e)-	-l(e)-	-l(e)-	.	.	.	.	.	.	.	.	.	.	.	.	.
!	!	!	!	!	!	!	!	!	!	!	!	!	!LO:PB:g=original	!	!	!	!	!	!	!	!	!	!	!	!	!	!	!	!	!	!	!	!	!	!	!	!	!	!LO:PB:g=original	!	!	!	!	!	!	!	!	!	!	!	!	!	!	!	!	!	!	!	!	!	!	!	!	!	!	!	!	!	!	!	!	!	!	!	!	!	!	!	!	!	!	!	!	!	!	!	!	!	!	!	!	!	!	!	!	!	!	!	!	!	!	!	!
=16-	=16-	=16-	=16-	=16-	=16-	=16-	=16-	=16-	=16-	=16-	=16-	=16-	=16-	=16-	=16-	=16-	=16-	=16-	=16-	=16-	=16-	=16-	=16-	=16-	=16-	=16-	=16-	=16-	=16-	=16-	=16-	=16-	=16-	=16-	=16-	=16-	=16-	=16-	=16-	=16-	=16-	=16-	=16-	=16-	=16-	=16-	=16-	=16-	=16-	=16-	=16-	=16-	=16-	=16-	=16-	=16-	=16-	=16-	=16-	=16-	=16-	=16-	=16-	=16-	=16-	=16-	=16-	=16-	=16-	=16-	=16-	=16-	=16-	=16-	=16-	=16-	=16-	=16-	=16-	=16-	=16-	=16-	=16-	=16-	=16-	=16-	=16-	=16-	=16-	=16-	=16-	=16-	=16-	=16-	=16-	=16-	=16-	=16-	=16-	=16-	=16-	=16-	=16-
4r	.	.	.	.	.	.	.	.	.	.	.	.	4r	.	.	.	.	.	.	.	.	.	.	.	.	4r	.	.	.	.	.	.	.	.	.	.	.	.	4r	.	.	.	.	.	.	.	.	.	.	.	.	2g\	-(lu)-	-(lu)-	-(lu)-	-(lu)-	-(lu)-	-(lu)-	-(lu)-	-(lu)-	-(lu)-	-(lu)-	-(lu)-	-(lu)-	2b-\	-(lu)-	-(lu)-	-(lu)-	-(lu)-	-(lu)-	-(lu)-	-(lu)-	-(lu)-	-(lu)-	-(lu)-	-(lu)-	-(lu)-	2dd\	-(lu)-	-(lu)-	-(lu)-	-(lu)-	-(lu)-	-(lu)-	-(lu)-	-(lu)-	-(lu)-	-(lu)-	-(lu)-	-(lu)-	2gg\	-(lu)-	-(lu)-	-(lu)-	-(lu)-	-(lu)-	-(lu)-	-(lu)-	-(lu)-	-(lu)-	-(lu)-	-(lu)-	-(lu)-
4G/	al-	al-	al-	al-	al-	al-	al-	al-	al-	al-	al-	al-	4a\	al-	al-	al-	al-	al-	al-	al-	al-	al-	al-	al-	al-	2b-\	al-	al-	al-	al-	al-	al-	al-	al-	al-	al-	al-	al-	2dd\	al-	al-	al-	al-	al-	al-	al-	al-	al-	al-	al-	al-	.	.	.	.	.	.	.	.	.	.	.	.	.	.	.	.	.	.	.	.	.	.	.	.	.	.	.	.	.	.	.	.	.	.	.	.	.	.	.	.	.	.	.	.	.	.	.	.	.	.	.	.
!	!	!	!	!	!	!	!	!	!	!	!	!	!	!	!	!	!	!	!	!	!	!	!	!	!	!	!	!	!	!	!	!	!	!	!	!	!	!	!	!	!	!	!	!	!	!	!	!	!	!	!	!	!	!	!	!	!	!	!	!	!	!	!	!	!	!	!	!	!	!	!	!	!	!	!	!	!	!	!	!	!	!	!	!	!	!	!	!	!	!	!LO:TX:t=P:problem:# below	!	!	!	!	!	!	!	!	!	!	!	!
2d\	-l(e)-	-l(e)-	-l(e)-	-l(e)-	-l(e)-	-l(e)-	-l(e)-	-l(e)-	-l(e)-	-l(e)-	-l(e)-	-l(e)-	2a\	-le-	-l(e)-	-l(e)-	-l(e)-	-l(e)-	-l(e)-	-l(e)-	-l(e)-	-l(e)-	-l(e)-	-l(e)-	-l(e)-	.	.	.	.	.	.	.	.	.	.	.	.	.	.	.	.	.	.	.	.	.	.	.	.	.	.	2d\	-(i)a	-(i)a	-(i)a	-(i)a	-(i)a	-(i)a	-(i)a	-(i)a	-(i)a	-(i)a	-(i)a	-(i)a	2a\	-(i)a	-(i)a	-(i)a	-(i)a	-(i)a	-(i)a	-(i)a	-(i)a	-(i)a	-(i)a	-(i)a	-(i)a	2dd\	-(i)a	-(i)a	-(i)a	-(i)a	-(i)a	-(i)a	-(i)a	-(i)a	-(i)a	-(i)a	-(i)a	-(i)a	2ff#X\	-(i)a	-(i)a	-(i)a	-(i)a	-(i)a	-(i)a	-(i)a	-(i)a	-(i)a	-(i)a	-(i)a	-(i)a
.	.	.	.	.	.	.	.	.	.	.	.	.	.	.	.	.	.	.	.	.	.	.	.	.	.	4a\	-l(e)-	-l(e)-	-l(e)-	-l(e)-	-l(e)-	-l(e)-	-l(e)-	-l(e)-	-l(e)-	-l(e)-	-l(e)-	-l(e)-	4dd\	-l(e)-	-l(e)-	-l(e)-	-l(e)-	-l(e)-	-l(e)-	-l(e)-	-l(e)-	-l(e)-	-l(e)-	-l(e)-	-l(e)-	.	.	.	.	.	.	.	.	.	.	.	.	.	.	.	.	.	.	.	.	.	.	.	.	.	.	.	.	.	.	.	.	.	.	.	.	.	.	.	.	.	.	.	.	.	.	.	.	.	.	.	.
=17-	=17-	=17-	=17-	=17-	=17-	=17-	=17-	=17-	=17-	=17-	=17-	=17-	=17-	=17-	=17-	=17-	=17-	=17-	=17-	=17-	=17-	=17-	=17-	=17-	=17-	=17-	=17-	=17-	=17-	=17-	=17-	=17-	=17-	=17-	=17-	=17-	=17-	=17-	=17-	=17-	=17-	=17-	=17-	=17-	=17-	=17-	=17-	=17-	=17-	=17-	=17-	=17-	=17-	=17-	=17-	=17-	=17-	=17-	=17-	=17-	=17-	=17-	=17-	=17-	=17-	=17-	=17-	=17-	=17-	=17-	=17-	=17-	=17-	=17-	=17-	=17-	=17-	=17-	=17-	=17-	=17-	=17-	=17-	=17-	=17-	=17-	=17-	=17-	=17-	=17-	=17-	=17-	=17-	=17-	=17-	=17-	=17-	=17-	=17-	=17-	=17-	=17-	=17-
8G/L	-(lu)-	-(lu)-	-(lu)-	-(lu)-	-(lu)-	-(lu)-	-(lu)-	-(lu)-	-(lu)-	-(lu)-	-(lu)-	-(lu)-	2g\	-lu-	-(lu)-	-(lu)-	-(lu)-	-(lu)-	-(lu)-	-(lu)-	-(lu)-	-(lu)-	-(lu)-	-(lu)-	-(lu)-	2b-\	-(lu)-	-(lu)-	-(lu)-	-(lu)-	-(lu)-	-(lu)-	-(lu)-	-(lu)-	-(lu)-	-(lu)-	-(lu)-	-(lu)-	2dd\	-(lu)-	-(lu)-	-(lu)-	-(lu)-	-(lu)-	-(lu)-	-(lu)-	-(lu)-	-(lu)-	-(lu)-	-(lu)-	-(lu)-	1r	.	.	.	.	.	.	.	.	.	.	.	.	1r	.	.	.	.	.	.	.	.	.	.	.	.	1r	.	.	.	.	.	.	.	.	.	.	.	.	1r	.	.	.	.	.	.	.	.	.	.	.	.
8A/	.	.	.	.	.	.	.	.	.	.	.	.	.	.	.	.	.	.	.	.	.	.	.	.	.	.	.	.	.	.	.	.	.	.	.	.	.	.	.	.	.	.	.	.	.	.	.	.	.	.	.	.	.	.	.	.	.	.	.	.	.	.	.	.	.	.	.	.	.	.	.	.	.	.	.	.	.	.	.	.	.	.	.	.	.	.	.	.	.	.	.	.	.	.	.	.	.	.	.	.	.	.	.
8B-/	.	.	.	.	.	.	.	.	.	.	.	.	.	.	.	.	.	.	.	.	.	.	.	.	.	.	.	.	.	.	.	.	.	.	.	.	.	.	.	.	.	.	.	.	.	.	.	.	.	.	.	.	.	.	.	.	.	.	.	.	.	.	.	.	.	.	.	.	.	.	.	.	.	.	.	.	.	.	.	.	.	.	.	.	.	.	.	.	.	.	.	.	.	.	.	.	.	.	.	.	.	.	.
8c/J	.	.	.	.	.	.	.	.	.	.	.	.	.	.	.	.	.	.	.	.	.	.	.	.	.	.	.	.	.	.	.	.	.	.	.	.	.	.	.	.	.	.	.	.	.	.	.	.	.	.	.	.	.	.	.	.	.	.	.	.	.	.	.	.	.	.	.	.	.	.	.	.	.	.	.	.	.	.	.	.	.	.	.	.	.	.	.	.	.	.	.	.	.	.	.	.	.	.	.	.	.	.	.
!	!	!	!	!	!	!	!	!	!	!	!	!	!LO:TX:t=P:problem:# below	!	!	!	!	!	!	!	!	!	!	!	!	!	!	!	!	!	!	!	!	!	!	!	!	!	!	!	!	!	!	!	!	!	!	!	!	!	!	!	!	!	!	!	!	!	!	!	!	!	!	!	!	!	!	!	!	!	!	!	!	!	!	!	!	!	!	!	!	!	!	!	!	!	!	!	!	!	!	!	!	!	!	!	!	!	!	!	!	!	!
2d\	-(i)a	-(i)a	-(i)a	-(i)a	-(i)a	-(i)a	-(i)a	-(i)a	-(i)a	-(i)a	-(i)a	-(i)a	2f#X\	-ia	-(i)a	-(i)a	-(i)a	-(i)a	-(i)a	-(i)a	-(i)a	-(i)a	-(i)a	-(i)a	-(i)a	2a\	-(i)a	-(i)a	-(i)a	-(i)a	-(i)a	-(i)a	-(i)a	-(i)a	-(i)a	-(i)a	-(i)a	-(i)a	2dd\	-(i)a	-(i)a	-(i)a	-(i)a	-(i)a	-(i)a	-(i)a	-(i)a	-(i)a	-(i)a	-(i)a	-(i)a	.	.	.	.	.	.	.	.	.	.	.	.	.	.	.	.	.	.	.	.	.	.	.	.	.	.	.	.	.	.	.	.	.	.	.	.	.	.	.	.	.	.	.	.	.	.	.	.	.	.	.	.
=18-	=18-	=18-	=18-	=18-	=18-	=18-	=18-	=18-	=18-	=18-	=18-	=18-	=18-	=18-	=18-	=18-	=18-	=18-	=18-	=18-	=18-	=18-	=18-	=18-	=18-	=18-	=18-	=18-	=18-	=18-	=18-	=18-	=18-	=18-	=18-	=18-	=18-	=18-	=18-	=18-	=18-	=18-	=18-	=18-	=18-	=18-	=18-	=18-	=18-	=18-	=18-	=18-	=18-	=18-	=18-	=18-	=18-	=18-	=18-	=18-	=18-	=18-	=18-	=18-	=18-	=18-	=18-	=18-	=18-	=18-	=18-	=18-	=18-	=18-	=18-	=18-	=18-	=18-	=18-	=18-	=18-	=18-	=18-	=18-	=18-	=18-	=18-	=18-	=18-	=18-	=18-	=18-	=18-	=18-	=18-	=18-	=18-	=18-	=18-	=18-	=18-	=18-	=18-
0r	.	.	.	.	.	.	.	.	.	.	.	.	0r	.	.	.	.	.	.	.	.	.	.	.	.	0r	.	.	.	.	.	.	.	.	.	.	.	.	0r	.	.	.	.	.	.	.	.	.	.	.	.	4fny\	nam	Z Pa-	dał	na	Pan	wſtał	dro-	ie-	gdzieś	no-	ia-	te-	4a\	nam	Z Pa-	dał	na	Pan	wſtał	dro-	ie-	gdzieś	no-	ia-	te-	4cc\	nam	Z Pa-	dał	na	Pan	wſtał	dro-	ie-	gdzieś	no-	ia-	te-	4ffny\	nam	Z Pa-	dał	na	Pan	wſtał	dro-	ie-	gdzieś	no-	ia-	te-
.	.	.	.	.	.	.	.	.	.	.	.	.	.	.	.	.	.	.	.	.	.	.	.	.	.	.	.	.	.	.	.	.	.	.	.	.	.	.	.	.	.	.	.	.	.	.	.	.	.	.	.	4d\	na	-nem	Bog	zba-	Bog	zmart-	-gie	-mu	Chriſ-	-sił	-ko	-gos-	4a\	na	-nem	Bog	zba-	Bog	zmart-	-gie	-mu	Chriſ-	-sił	-ko	-gos-	4dd\	na	-nem	Bog	zba-	Bog	zmart-	-gie	-mu	Chriſ-	-sił	-ko	-gos-	4ff\	na	-nem	Bog	zba-	Bog	zmart-	-gie	-mu	Chriſ-	-sił	-ko	-gos-
.	.	.	.	.	.	.	.	.	.	.	.	.	.	.	.	.	.	.	.	.	.	.	.	.	.	.	.	.	.	.	.	.	.	.	.	.	.	.	.	.	.	.	.	.	.	.	.	.	.	.	.	4e-X\	przy-	Bo-	prze-	-wie-	Chrzes-	-wych	mas-	część	-ta	cho-	w nie-	-my	4g\	przy-	Bo-	prze-	-wie-	Chrzes-	-wych	mas-	część	-ta	cho-	w nie-	-my	4cc\	przy-	Bo-	prze-	-wie-	Chrzes-	-wych	mas-	część	-ta	cho-	w nie-	-my	4ee-X\	przy-	Bo-	prze-	-wie-	Chrzes-	-wych	mas-	część	-ta	cho-	w nie-	-my
.	.	.	.	.	.	.	.	.	.	.	.	.	.	.	.	.	.	.	.	.	.	.	.	.	.	.	.	.	.	.	.	.	.	.	.	.	.	.	.	.	.	.	.	.	.	.	.	.	.	.	.	4B-/	-kład	-giem	-bić	-nie	-ci-	na	-ci	y	wi-	-rą-	-bie	do-	4fny\	-kład	-giem	-bić	-nie	-ci-	na	-ci	y	wi-	-rą-	-bie	do-	4b-\	-kład	-giem	-bić	-nie	-ci-	na	-ci	y	wi-	-rą-	-bie	do-	4dd\	-kład	-giem	-bić	-nie	-ci-	na	-ci	y	wi-	-rą-	-bie	do-
=19-	=19-	=19-	=19-	=19-	=19-	=19-	=19-	=19-	=19-	=19-	=19-	=19-	=19-	=19-	=19-	=19-	=19-	=19-	=19-	=19-	=19-	=19-	=19-	=19-	=19-	=19-	=19-	=19-	=19-	=19-	=19-	=19-	=19-	=19-	=19-	=19-	=19-	=19-	=19-	=19-	=19-	=19-	=19-	=19-	=19-	=19-	=19-	=19-	=19-	=19-	=19-	=19-	=19-	=19-	=19-	=19-	=19-	=19-	=19-	=19-	=19-	=19-	=19-	=19-	=19-	=19-	=19-	=19-	=19-	=19-	=19-	=19-	=19-	=19-	=19-	=19-	=19-	=19-	=19-	=19-	=19-	=19-	=19-	=19-	=19-	=19-	=19-	=19-	=19-	=19-	=19-	=19-	=19-	=19-	=19-	=19-	=19-	=19-	=19-	=19-	=19-	=19-	=19-
.	.	.	.	.	.	.	.	.	.	.	.	.	.	.	.	.	.	.	.	.	.	.	.	.	.	.	.	.	.	.	.	.	.	.	.	.	.	.	.	.	.	.	.	.	.	.	.	.	.	.	.	4f\	dan	kró-	so-	to-	-an-	wiel-	nio-	chwa-	-dzia-	-giew	A-	-cze-	4f\	dan	kró-	so-	to-	-an-	wiel-	nio-	chwa-	-dzia-	-giew	A-	-cze-	4a\	dan	kró-	so-	to-	-an-	wiel-	nio-	chwa-	-dzia-	-giew	A-	-cze-	4cc\	dan	kró-	so-	to-	-an-	wiel-	nio-	chwa-	-dzia-	-giew	A-	-cze-
.	.	.	.	.	.	.	.	.	.	.	.	.	.	.	.	.	.	.	.	.	.	.	.	.	.	.	.	.	.	.	.	.	.	.	.	.	.	.	.	.	.	.	.	.	.	.	.	.	.	.	.	4f\	.	-lo-	.	.	.	-ką	.	-łę	.	w rę-	-nie-	-ka-	4f\	.	-lo-	.	.	.	-ką	.	-łę	.	w rę-	-nie-	-ka-	4a\	.	-lo-	.	.	.	-ką	.	-łę	.	w rę-	-nie-	-ka-	4cc\	.	-lo-	.	.	.	-ką	.	-łę	.	w rę-	-nie-	-ka-
.	.	.	.	.	.	.	.	.	.	.	.	.	.	.	.	.	.	.	.	.	.	.	.	.	.	.	.	.	.	.	.	.	.	.	.	.	.	.	.	.	.	.	.	.	.	.	.	.	.	.	.	2B-/	ieſt	-wać	-bie	-bie	-ski	noc	-sły	dać	-ła	-ce	-li	-li	2f\	ieſt	-wać	-bie	-bie	-ski	noc	-sły	dać	-ła	-ce	-li	-li	2b-\	ieſt	-wać	-bie	-bie	-ski	noc	-sły	dać	-ła	-ce	-li	-li	2dd\	ieſt	-wać	-bie	-bie	-ski	noc	-sły	dać	-ła	-ce	-li	-li
=20-	=20-	=20-	=20-	=20-	=20-	=20-	=20-	=20-	=20-	=20-	=20-	=20-	=20-	=20-	=20-	=20-	=20-	=20-	=20-	=20-	=20-	=20-	=20-	=20-	=20-	=20-	=20-	=20-	=20-	=20-	=20-	=20-	=20-	=20-	=20-	=20-	=20-	=20-	=20-	=20-	=20-	=20-	=20-	=20-	=20-	=20-	=20-	=20-	=20-	=20-	=20-	=20-	=20-	=20-	=20-	=20-	=20-	=20-	=20-	=20-	=20-	=20-	=20-	=20-	=20-	=20-	=20-	=20-	=20-	=20-	=20-	=20-	=20-	=20-	=20-	=20-	=20-	=20-	=20-	=20-	=20-	=20-	=20-	=20-	=20-	=20-	=20-	=20-	=20-	=20-	=20-	=20-	=20-	=20-	=20-	=20-	=20-	=20-	=20-	=20-	=20-	=20-	=20-
4fny\	nam	Z Pa-	dał	na	Pan	wſtał	dro-	ie-	gdzieś	no-	ia-	te-	4a\	nam	Z Pa-	dał	na	Pan	wſtał	dro-	ie-	gdzieś	no-	ia-	te-	4cc\	nam	Z Pa-	dał	na	Pan	wſtał	dro-	ie-	gdzieś	no-	ia-	te-	4ffny\	nam	Z Pa-	dał	na	Pan	wſtał	dro-	ie-	gdzieś	no-	ia-	te-	0r	.	.	.	.	.	.	.	.	.	.	.	.	0r	.	.	.	.	.	.	.	.	.	.	.	.	0r	.	.	.	.	.	.	.	.	.	.	.	.	0r	.	.	.	.	.	.	.	.	.	.	.	.
4d\	na	-nem	Bog	zba-	Bog	zmart-	-gie	-mu	Chriſ-	-sił	-ko	-gos-	4a\	na	-nem	Bog	zba-	Bog	zmart-	-gie	-mu	Chriſ-	-sił	-ko	-gos-	4dd\	na	-nem	Bog	zba-	Bog	zmart-	-gie	-mu	Chriſ-	-sił	-ko	-gos-	4ff\	na	-nem	Bog	zba-	Bog	zmart-	-gie	-mu	Chriſ-	-sił	-ko	-gos-	.	.	.	.	.	.	.	.	.	.	.	.	.	.	.	.	.	.	.	.	.	.	.	.	.	.	.	.	.	.	.	.	.	.	.	.	.	.	.	.	.	.	.	.	.	.	.	.	.	.	.	.
4e-X\	przy-	Bo-	prze-	-wie-	Chrzes-	-wych	mas-	część	-ta	cho-	w nie-	-my	4g\	przy-	Bo-	prze-	-wie-	Chrzes-	-wych	mas-	część	-ta	cho-	w nie-	-my	4cc\	przy-	Bo-	prze-	-wie-	Chrzes-	-wych	mas-	część	-ta	cho-	w nie-	-my	4ee-X\	przy-	Bo-	prze-	-wie-	Chrzes-	-wych	mas-	część	-ta	cho-	w nie-	-my	.	.	.	.	.	.	.	.	.	.	.	.	.	.	.	.	.	.	.	.	.	.	.	.	.	.	.	.	.	.	.	.	.	.	.	.	.	.	.	.	.	.	.	.	.	.	.	.	.	.	.	.
4B-/	-kład	-giem	-bić	-nie	-ci-	na	-ci	y	wi-	-rą-	-bie	do-	4fny\	-kład	-giem	-bić	-nie	-ci-	na	-ci	y	wi-	-rą-	-bie	do-	4b-\	-kład	-giem	-bić	-nie	-ci-	na	-ci	y	wi-	-rą-	-bie	do-	4dd\	-kład	-giem	-bić	-nie	-ci-	na	-ci	y	wi-	-rą-	-bie	do-	.	.	.	.	.	.	.	.	.	.	.	.	.	.	.	.	.	.	.	.	.	.	.	.	.	.	.	.	.	.	.	.	.	.	.	.	.	.	.	.	.	.	.	.	.	.	.	.	.	.	.	.
=21-	=21-	=21-	=21-	=21-	=21-	=21-	=21-	=21-	=21-	=21-	=21-	=21-	=21-	=21-	=21-	=21-	=21-	=21-	=21-	=21-	=21-	=21-	=21-	=21-	=21-	=21-	=21-	=21-	=21-	=21-	=21-	=21-	=21-	=21-	=21-	=21-	=21-	=21-	=21-	=21-	=21-	=21-	=21-	=21-	=21-	=21-	=21-	=21-	=21-	=21-	=21-	=21-	=21-	=21-	=21-	=21-	=21-	=21-	=21-	=21-	=21-	=21-	=21-	=21-	=21-	=21-	=21-	=21-	=21-	=21-	=21-	=21-	=21-	=21-	=21-	=21-	=21-	=21-	=21-	=21-	=21-	=21-	=21-	=21-	=21-	=21-	=21-	=21-	=21-	=21-	=21-	=21-	=21-	=21-	=21-	=21-	=21-	=21-	=21-	=21-	=21-	=21-	=21-
4f\	dan	kró-	so-	to-	-an-	wiel-	nio-	chwa-	-dzia-	-giew	A-	-cze-	4f\	dan	kró-	so-	to-	-an-	wiel-	nio-	chwa-	-dzia-	-giew	A-	-cze-	4a\	dan	kró-	so-	to-	-an-	wiel-	nio-	chwa-	-dzia-	-giew	A-	-cze-	4cc\	dan	kró-	so-	to-	-an-	wiel-	nio-	chwa-	-dzia-	-giew	A-	-cze-	.	.	.	.	.	.	.	.	.	.	.	.	.	.	.	.	.	.	.	.	.	.	.	.	.	.	.	.	.	.	.	.	.	.	.	.	.	.	.	.	.	.	.	.	.	.	.	.	.	.	.	.
4f\	.	-lo-	.	.	.	-ką	.	-łę	.	w rę-	-nie-	-ka-	4f\	.	-lo-	.	.	.	-ką	.	-łę	.	w rę-	-nie-	-ka-	4a\	.	-lo-	.	.	.	-ką	.	-łę	.	w rę-	-nie-	-ka-	4cc\	.	-lo-	.	.	.	-ką	.	-łę	.	w rę-	-nie-	-ka-	.	.	.	.	.	.	.	.	.	.	.	.	.	.	.	.	.	.	.	.	.	.	.	.	.	.	.	.	.	.	.	.	.	.	.	.	.	.	.	.	.	.	.	.	.	.	.	.	.	.	.	.
2B-/	ieſt	-wać	-bie	-bie	-ski	noc	-sły	dać	-ła	-ce	-li	-li	2f\	ieſt	-wać	-bie	-bie	-ski	noc	-sły	dać	-ła	-ce	-li	-li	2b-\	ieſt	-wać	-bie	-bie	-ski	noc	-sły	dać	-ła	-ce	-li	-li	2dd\	ieſt	-wać	-bie	-bie	-ski	noc	-sły	dać	-ła	-ce	-li	-li	.	.	.	.	.	.	.	.	.	.	.	.	.	.	.	.	.	.	.	.	.	.	.	.	.	.	.	.	.	.	.	.	.	.	.	.	.	.	.	.	.	.	.	.	.	.	.	.	.	.	.	.
=22-	=22-	=22-	=22-	=22-	=22-	=22-	=22-	=22-	=22-	=22-	=22-	=22-	=22-	=22-	=22-	=22-	=22-	=22-	=22-	=22-	=22-	=22-	=22-	=22-	=22-	=22-	=22-	=22-	=22-	=22-	=22-	=22-	=22-	=22-	=22-	=22-	=22-	=22-	=22-	=22-	=22-	=22-	=22-	=22-	=22-	=22-	=22-	=22-	=22-	=22-	=22-	=22-	=22-	=22-	=22-	=22-	=22-	=22-	=22-	=22-	=22-	=22-	=22-	=22-	=22-	=22-	=22-	=22-	=22-	=22-	=22-	=22-	=22-	=22-	=22-	=22-	=22-	=22-	=22-	=22-	=22-	=22-	=22-	=22-	=22-	=22-	=22-	=22-	=22-	=22-	=22-	=22-	=22-	=22-	=22-	=22-	=22-	=22-	=22-	=22-	=22-	=22-	=22-
1r	.	.	.	.	.	.	.	.	.	.	.	.	1r	.	.	.	.	.	.	.	.	.	.	.	.	1r	.	.	.	.	.	.	.	.	.	.	.	.	1r	.	.	.	.	.	.	.	.	.	.	.	.	2d\	al-	al-	al-	al-	al-	al-	al-	al-	al-	al-	al-	al-	2.a\	al-	al-	al-	al-	al-	al-	al-	al-	al-	al-	al-	al-	2.dd\	al-	al-	al-	al-	al-	al-	al-	al-	al-	al-	al-	al-	2.ff\	al-	al-	al-	al-	al-	al-	al-	al-	al-	al-	al-	al-
.	.	.	.	.	.	.	.	.	.	.	.	.	.	.	.	.	.	.	.	.	.	.	.	.	.	.	.	.	.	.	.	.	.	.	.	.	.	.	.	.	.	.	.	.	.	.	.	.	.	.	.	2B-/	-l(e)-	-l(e)-	-l(e)-	-l(e)-	-l(e)-	-l(e)-	-l(e)-	-l(e)-	-l(e)-	-l(e)-	-l(e)-	-l(e)-	.	.	.	.	.	.	.	.	.	.	.	.	.	.	.	.	.	.	.	.	.	.	.	.	.	.	.	.	.	.	.	.	.	.	.	.	.	.	.
.	.	.	.	.	.	.	.	.	.	.	.	.	.	.	.	.	.	.	.	.	.	.	.	.	.	.	.	.	.	.	.	.	.	.	.	.	.	.	.	.	.	.	.	.	.	.	.	.	.	.	.	.	.	.	.	.	.	.	.	.	.	.	.	.	4b-\	-l(e)-	-l(e)-	-l(e)-	-l(e)-	-l(e)-	-l(e)-	-l(e)-	-l(e)-	-l(e)-	-l(e)-	-l(e)-	-l(e)-	4cc\	-l(e)-	-l(e)-	-l(e)-	-l(e)-	-l(e)-	-l(e)-	-l(e)-	-l(e)-	-l(e)-	-l(e)-	-l(e)-	-l(e)-	4dd\	-l(e)-	-l(e)-	-l(e)-	-l(e)-	-l(e)-	-l(e)-	-l(e)-	-l(e)-	-l(e)-	-l(e)-	-l(e)-	-l(e)-
=23-	=23-	=23-	=23-	=23-	=23-	=23-	=23-	=23-	=23-	=23-	=23-	=23-	=23-	=23-	=23-	=23-	=23-	=23-	=23-	=23-	=23-	=23-	=23-	=23-	=23-	=23-	=23-	=23-	=23-	=23-	=23-	=23-	=23-	=23-	=23-	=23-	=23-	=23-	=23-	=23-	=23-	=23-	=23-	=23-	=23-	=23-	=23-	=23-	=23-	=23-	=23-	=23-	=23-	=23-	=23-	=23-	=23-	=23-	=23-	=23-	=23-	=23-	=23-	=23-	=23-	=23-	=23-	=23-	=23-	=23-	=23-	=23-	=23-	=23-	=23-	=23-	=23-	=23-	=23-	=23-	=23-	=23-	=23-	=23-	=23-	=23-	=23-	=23-	=23-	=23-	=23-	=23-	=23-	=23-	=23-	=23-	=23-	=23-	=23-	=23-	=23-	=23-	=23-
2r	.	.	.	.	.	.	.	.	.	.	.	.	2r	.	.	.	.	.	.	.	.	.	.	.	.	2r	.	.	.	.	.	.	.	.	.	.	.	.	2r	.	.	.	.	.	.	.	.	.	.	.	.	2c\	-(lu)-	-(lu)-	-(lu)-	-(lu)-	-(lu)-	-(lu)-	-(lu)-	-(lu)-	-(lu)-	-(lu)-	-(lu)-	-(lu)-	2g\	-(lu)-	-(lu)-	-(lu)-	-(lu)-	-(lu)-	-(lu)-	-(lu)-	-(lu)-	-(lu)-	-(lu)-	-(lu)-	-(lu)-	4.b-\	-(lu)-	-(lu)-	-(lu)-	-(lu)-	-(lu)-	-(lu)-	-(lu)-	-(lu)-	-(lu)-	-(lu)-	-(lu)-	-(lu)-	2ee-X\	-(lu)-	-(lu)-	-(lu)-	-(lu)-	-(lu)-	-(lu)-	-(lu)-	-(lu)-	-(lu)-	-(lu)-	-(lu)-	-(lu)-
.	.	.	.	.	.	.	.	.	.	.	.	.	.	.	.	.	.	.	.	.	.	.	.	.	.	.	.	.	.	.	.	.	.	.	.	.	.	.	.	.	.	.	.	.	.	.	.	.	.	.	.	.	.	.	.	.	.	.	.	.	.	.	.	.	.	.	.	.	.	.	.	.	.	.	.	.	.	8a\	.	.	.	.	.	.	.	.	.	.	.	.	.	.	.	.	.	.	.	.	.	.	.	.	.
!	!	!	!	!	!	!	!	!	!	!	!	!	!	!	!	!	!	!	!	!	!	!	!	!	!	!	!	!	!	!	!	!	!	!	!	!	!	!	!	!	!	!	!	!	!	!	!	!	!	!	!	!	!	!	!	!	!	!	!	!	!	!	!	!	!LO:TX:t=P:problem:# below	!	!	!	!	!	!	!	!	!	!	!	!	!	!	!	!	!	!	!	!	!	!	!	!	!	!	!	!	!	!	!	!	!	!	!	!	!	!
4r	.	.	.	.	.	.	.	.	.	.	.	.	4r	.	.	.	.	.	.	.	.	.	.	.	.	4r	.	.	.	.	.	.	.	.	.	.	.	.	4r	.	.	.	.	.	.	.	.	.	.	.	.	2d\	-(i)a	-(i)a	-(i)a	-(i)a	-(i)a	-(i)a	-(i)a	-(i)a	-(i)a	-(i)a	-(i)a	-(i)a	2f#X\	-(i)a	-(i)a	-(i)a	-(i)a	-(i)a	-(i)a	-(i)a	-(i)a	-(i)a	-(i)a	-(i)a	-(i)a	2g\	-(i)a	-(i)a	-(i)a	-(i)a	-(i)a	-(i)a	-(i)a	-(i)a	-(i)a	-(i)a	-(i)a	-(i)a	2dd\	-(i)a	-(i)a	-(i)a	-(i)a	-(i)a	-(i)a	-(i)a	-(i)a	-(i)a	-(i)a	-(i)a	-(i)a
4d\	al-	al-	al-	al-	al-	al-	al-	al-	al-	al-	al-	al-	4a\	al-	al-	al-	al-	al-	al-	al-	al-	al-	al-	al-	al-	2dd\	al-	al-	al-	al-	al-	al-	al-	al-	al-	al-	al-	al-	2ff\	al-	al-	al-	al-	al-	al-	al-	al-	al-	al-	al-	al-	.	.	.	.	.	.	.	.	.	.	.	.	.	.	.	.	.	.	.	.	.	.	.	.	.	.	.	.	.	.	.	.	.	.	.	.	.	.	.	.	.	.	.	.	.	.	.	.	.	.	.	.
=24-	=24-	=24-	=24-	=24-	=24-	=24-	=24-	=24-	=24-	=24-	=24-	=24-	=24-	=24-	=24-	=24-	=24-	=24-	=24-	=24-	=24-	=24-	=24-	=24-	=24-	=24-	=24-	=24-	=24-	=24-	=24-	=24-	=24-	=24-	=24-	=24-	=24-	=24-	=24-	=24-	=24-	=24-	=24-	=24-	=24-	=24-	=24-	=24-	=24-	=24-	=24-	=24-	=24-	=24-	=24-	=24-	=24-	=24-	=24-	=24-	=24-	=24-	=24-	=24-	=24-	=24-	=24-	=24-	=24-	=24-	=24-	=24-	=24-	=24-	=24-	=24-	=24-	=24-	=24-	=24-	=24-	=24-	=24-	=24-	=24-	=24-	=24-	=24-	=24-	=24-	=24-	=24-	=24-	=24-	=24-	=24-	=24-	=24-	=24-	=24-	=24-	=24-	=24-
2B-/	-l(e)-	-l(e)-	-l(e)-	-l(e)-	-l(e)-	-l(e)-	-l(e)-	-l(e)-	-l(e)-	-l(e)-	-l(e)-	-l(e)-	4.b-\	-le-	-l(e)-	-l(e)-	-l(e)-	-l(e)-	-l(e)-	-l(e)-	-l(e)-	-l(e)-	-l(e)-	-l(e)-	-l(e)-	.	.	.	.	.	.	.	.	.	.	.	.	.	.	.	.	.	.	.	.	.	.	.	.	.	.	1r	.	.	.	.	.	.	.	.	.	.	.	.	1r	.	.	.	.	.	.	.	.	.	.	.	.	1r	.	.	.	.	.	.	.	.	.	.	.	.	1r	.	.	.	.	.	.	.	.	.	.	.	.
.	.	.	.	.	.	.	.	.	.	.	.	.	.	.	.	.	.	.	.	.	.	.	.	.	.	4dd\	-l(e)-	-l(e)-	-l(e)-	-l(e)-	-l(e)-	-l(e)-	-l(e)-	-l(e)-	-l(e)-	-l(e)-	-l(e)-	-l(e)-	4dd\	-l(e)-	-l(e)-	-l(e)-	-l(e)-	-l(e)-	-l(e)-	-l(e)-	-l(e)-	-l(e)-	-l(e)-	-l(e)-	-l(e)-	.	.	.	.	.	.	.	.	.	.	.	.	.	.	.	.	.	.	.	.	.	.	.	.	.	.	.	.	.	.	.	.	.	.	.	.	.	.	.	.	.	.	.	.	.	.	.	.	.	.	.	.
.	.	.	.	.	.	.	.	.	.	.	.	.	8a\	.	.	.	.	.	.	.	.	.	.	.	.	.	.	.	.	.	.	.	.	.	.	.	.	.	.	.	.	.	.	.	.	.	.	.	.	.	.	.	.	.	.	.	.	.	.	.	.	.	.	.	.	.	.	.	.	.	.	.	.	.	.	.	.	.	.	.	.	.	.	.	.	.	.	.	.	.	.	.	.	.	.	.	.	.	.	.	.	.	.
2c/	-(lu)-	-(lu)-	-(lu)-	-(lu)-	-(lu)-	-(lu)-	-(lu)-	-(lu)-	-(lu)-	-(lu)-	-(lu)-	-(lu)-	2g\	-lu-	-(lu)-	-(lu)-	-(lu)-	-(lu)-	-(lu)-	-(lu)-	-(lu)-	-(lu)-	-(lu)-	-(lu)-	-(lu)-	4.cc\	-(lu)-	-(lu)-	-(lu)-	-(lu)-	-(lu)-	-(lu)-	-(lu)-	-(lu)-	-(lu)-	-(lu)-	-(lu)-	-(lu)-	2ee-X\	-(lu)-	-(lu)-	-(lu)-	-(lu)-	-(lu)-	-(lu)-	-(lu)-	-(lu)-	-(lu)-	-(lu)-	-(lu)-	-(lu)-	.	.	.	.	.	.	.	.	.	.	.	.	.	.	.	.	.	.	.	.	.	.	.	.	.	.	.	.	.	.	.	.	.	.	.	.	.	.	.	.	.	.	.	.	.	.	.	.	.	.	.	.
.	.	.	.	.	.	.	.	.	.	.	.	.	.	.	.	.	.	.	.	.	.	.	.	.	.	8b-\	.	.	.	.	.	.	.	.	.	.	.	.	.	.	.	.	.	.	.	.	.	.	.	.	.	.	.	.	.	.	.	.	.	.	.	.	.	.	.	.	.	.	.	.	.	.	.	.	.	.	.	.	.	.	.	.	.	.	.	.	.	.	.	.	.	.	.	.	.	.	.	.	.	.	.	.	.
=25-	=25-	=25-	=25-	=25-	=25-	=25-	=25-	=25-	=25-	=25-	=25-	=25-	=25-	=25-	=25-	=25-	=25-	=25-	=25-	=25-	=25-	=25-	=25-	=25-	=25-	=25-	=25-	=25-	=25-	=25-	=25-	=25-	=25-	=25-	=25-	=25-	=25-	=25-	=25-	=25-	=25-	=25-	=25-	=25-	=25-	=25-	=25-	=25-	=25-	=25-	=25-	=25-	=25-	=25-	=25-	=25-	=25-	=25-	=25-	=25-	=25-	=25-	=25-	=25-	=25-	=25-	=25-	=25-	=25-	=25-	=25-	=25-	=25-	=25-	=25-	=25-	=25-	=25-	=25-	=25-	=25-	=25-	=25-	=25-	=25-	=25-	=25-	=25-	=25-	=25-	=25-	=25-	=25-	=25-	=25-	=25-	=25-	=25-	=25-	=25-	=25-	=25-	=25-
!	!	!	!	!	!	!	!	!	!	!	!	!	!LO:TX:t=P:problem:# below	!	!	!	!	!	!	!	!	!	!	!	!	!	!	!	!	!	!	!	!	!	!	!	!	!	!	!	!	!	!	!	!	!	!	!	!	!	!	!	!	!	!	!	!	!	!	!	!	!	!	!	!	!	!	!	!	!	!	!	!	!	!	!	!	!	!	!	!	!	!	!	!	!	!	!	!	!	!	!	!	!	!	!	!	!	!	!	!	!	!
2d\	-(i)a	-(i)a	-(i)a	-(i)a	-(i)a	-(i)a	-(i)a	-(i)a	-(i)a	-(i)a	-(i)a	-(i)a	2f#X\	-ia	-(i)a	-(i)a	-(i)a	-(i)a	-(i)a	-(i)a	-(i)a	-(i)a	-(i)a	-(i)a	-(i)a	2a\	-(i)a	-(i)a	-(i)a	-(i)a	-(i)a	-(i)a	-(i)a	-(i)a	-(i)a	-(i)a	-(i)a	-(i)a	2dd\	-(i)a	-(i)a	-(i)a	-(i)a	-(i)a	-(i)a	-(i)a	-(i)a	-(i)a	-(i)a	-(i)a	-(i)a	4r	.	.	.	.	.	.	.	.	.	.	.	.	4r	.	.	.	.	.	.	.	.	.	.	.	.	4r	.	.	.	.	.	.	.	.	.	.	.	.	4r	.	.	.	.	.	.	.	.	.	.	.	.
.	.	.	.	.	.	.	.	.	.	.	.	.	.	.	.	.	.	.	.	.	.	.	.	.	.	.	.	.	.	.	.	.	.	.	.	.	.	.	.	.	.	.	.	.	.	.	.	.	.	.	.	4d\	al-	al-	al-	al-	al-	al-	al-	al-	al-	al-	al-	al-	2a\	al-	al-	al-	al-	al-	al-	al-	al-	al-	al-	al-	al-	2dd\	al-	al-	al-	al-	al-	al-	al-	al-	al-	al-	al-	al-	2ff\	al-	al-	al-	al-	al-	al-	al-	al-	al-	al-	al-	al-
2r	.	.	.	.	.	.	.	.	.	.	.	.	2r	.	.	.	.	.	.	.	.	.	.	.	.	2r	.	.	.	.	.	.	.	.	.	.	.	.	2r	.	.	.	.	.	.	.	.	.	.	.	.	2B-/	-l(e)-	-l(e)-	-l(e)-	-l(e)-	-l(e)-	-l(e)-	-l(e)-	-l(e)-	-l(e)-	-l(e)-	-l(e)-	-l(e)-	.	.	.	.	.	.	.	.	.	.	.	.	.	.	.	.	.	.	.	.	.	.	.	.	.	.	.	.	.	.	.	.	.	.	.	.	.	.	.
.	.	.	.	.	.	.	.	.	.	.	.	.	.	.	.	.	.	.	.	.	.	.	.	.	.	.	.	.	.	.	.	.	.	.	.	.	.	.	.	.	.	.	.	.	.	.	.	.	.	.	.	.	.	.	.	.	.	.	.	.	.	.	.	.	4b-\	-l(e)-	-l(e)-	-l(e)-	-l(e)-	-l(e)-	-l(e)-	-l(e)-	-l(e)-	-l(e)-	-l(e)-	-l(e)-	-l(e)-	4dd\	-l(e)-	-l(e)-	-l(e)-	-l(e)-	-l(e)-	-l(e)-	-l(e)-	-l(e)-	-l(e)-	-l(e)-	-l(e)-	-l(e)-	4dd\	-l(e)-	-l(e)-	-l(e)-	-l(e)-	-l(e)-	-l(e)-	-l(e)-	-l(e)-	-l(e)-	-l(e)-	-l(e)-	-l(e)-
=26-	=26-	=26-	=26-	=26-	=26-	=26-	=26-	=26-	=26-	=26-	=26-	=26-	=26-	=26-	=26-	=26-	=26-	=26-	=26-	=26-	=26-	=26-	=26-	=26-	=26-	=26-	=26-	=26-	=26-	=26-	=26-	=26-	=26-	=26-	=26-	=26-	=26-	=26-	=26-	=26-	=26-	=26-	=26-	=26-	=26-	=26-	=26-	=26-	=26-	=26-	=26-	=26-	=26-	=26-	=26-	=26-	=26-	=26-	=26-	=26-	=26-	=26-	=26-	=26-	=26-	=26-	=26-	=26-	=26-	=26-	=26-	=26-	=26-	=26-	=26-	=26-	=26-	=26-	=26-	=26-	=26-	=26-	=26-	=26-	=26-	=26-	=26-	=26-	=26-	=26-	=26-	=26-	=26-	=26-	=26-	=26-	=26-	=26-	=26-	=26-	=26-	=26-	=26-
1r	.	.	.	.	.	.	.	.	.	.	.	.	1r	.	.	.	.	.	.	.	.	.	.	.	.	1r	.	.	.	.	.	.	.	.	.	.	.	.	1r	.	.	.	.	.	.	.	.	.	.	.	.	2c\	-(lu)-	-(lu)-	-(lu)-	-(lu)-	-(lu)-	-(lu)-	-(lu)-	-(lu)-	-(lu)-	-(lu)-	-(lu)-	-(lu)-	2g\	-(lu)-	-(lu)-	-(lu)-	-(lu)-	-(lu)-	-(lu)-	-(lu)-	-(lu)-	-(lu)-	-(lu)-	-(lu)-	-(lu)-	4.cc\	-(lu)-	-(lu)-	-(lu)-	-(lu)-	-(lu)-	-(lu)-	-(lu)-	-(lu)-	-(lu)-	-(lu)-	-(lu)-	-(lu)-	2ee-X\	-(lu)-	-(lu)-	-(lu)-	-(lu)-	-(lu)-	-(lu)-	-(lu)-	-(lu)-	-(lu)-	-(lu)-	-(lu)-	-(lu)-
.	.	.	.	.	.	.	.	.	.	.	.	.	.	.	.	.	.	.	.	.	.	.	.	.	.	.	.	.	.	.	.	.	.	.	.	.	.	.	.	.	.	.	.	.	.	.	.	.	.	.	.	.	.	.	.	.	.	.	.	.	.	.	.	.	.	.	.	.	.	.	.	.	.	.	.	.	.	8b-\	.	.	.	.	.	.	.	.	.	.	.	.	.	.	.	.	.	.	.	.	.	.	.	.	.
!	!	!	!	!	!	!	!	!	!	!	!	!	!	!	!	!	!	!	!	!	!	!	!	!	!	!	!	!	!	!	!	!	!	!	!	!	!	!	!	!	!	!	!	!	!	!	!	!	!	!	!	!	!	!	!	!	!	!	!	!	!	!	!	!	!LO:TX:t=P:problem:# below	!	!	!	!	!	!	!	!	!	!	!	!	!	!	!	!	!	!	!	!	!	!	!	!	!	!	!	!	!	!	!	!	!	!	!	!	!	!
.	.	.	.	.	.	.	.	.	.	.	.	.	.	.	.	.	.	.	.	.	.	.	.	.	.	.	.	.	.	.	.	.	.	.	.	.	.	.	.	.	.	.	.	.	.	.	.	.	.	.	.	2d\	-(i)a	-(i)a	-(i)a	-(i)a	-(i)a	-(i)a	-(i)a	-(i)a	-(i)a	-(i)a	-(i)a	-(i)a	2f#X\	-(i)a	-(i)a	-(i)a	-(i)a	-(i)a	-(i)a	-(i)a	-(i)a	-(i)a	-(i)a	-(i)a	-(i)a	2a\	-(i)a	-(i)a	-(i)a	-(i)a	-(i)a	-(i)a	-(i)a	-(i)a	-(i)a	-(i)a	-(i)a	-(i)a	2dd\	-(i)a	-(i)a	-(i)a	-(i)a	-(i)a	-(i)a	-(i)a	-(i)a	-(i)a	-(i)a	-(i)a	-(i)a
=27-	=27-	=27-	=27-	=27-	=27-	=27-	=27-	=27-	=27-	=27-	=27-	=27-	=27-	=27-	=27-	=27-	=27-	=27-	=27-	=27-	=27-	=27-	=27-	=27-	=27-	=27-	=27-	=27-	=27-	=27-	=27-	=27-	=27-	=27-	=27-	=27-	=27-	=27-	=27-	=27-	=27-	=27-	=27-	=27-	=27-	=27-	=27-	=27-	=27-	=27-	=27-	=27-	=27-	=27-	=27-	=27-	=27-	=27-	=27-	=27-	=27-	=27-	=27-	=27-	=27-	=27-	=27-	=27-	=27-	=27-	=27-	=27-	=27-	=27-	=27-	=27-	=27-	=27-	=27-	=27-	=27-	=27-	=27-	=27-	=27-	=27-	=27-	=27-	=27-	=27-	=27-	=27-	=27-	=27-	=27-	=27-	=27-	=27-	=27-	=27-	=27-	=27-	=27-
!	!	!	!	!	!	!	!	!	!	!	!	!	!	!	!	!	!	!	!	!	!	!	!	!	!	!	!	!	!	!	!	!	!	!	!	!	!	!	!	!	!	!	!	!	!	!	!	!	!	!	!	!	!	!	!	!	!	!	!	!	!	!	!	!	!	!	!	!	!	!	!	!	!	!	!	!	!	!LO:TX:a:t=P:w źródle nuta poprawiana przez skryptora:problem	!	!	!	!	!	!	!	!	!	!	!	!	!	!	!	!	!	!	!	!	!	!	!	!	!
2g\	al-	al-	al-	al-	al-	al-	al-	al-	al-	al-	al-	al-	2d/	al-	al-	al-	al-	al-	al-	al-	al-	al-	al-	al-	al-	2.b-\	al-	al-	al-	al-	al-	al-	al-	al-	al-	al-	al-	al-	2dd\	al-	al-	al-	al-	al-	al-	al-	al-	al-	al-	al-	al-	2G/	al-	al-	al-	al-	al-	al-	al-	al-	al-	al-	al-	al-	2g\	al-	al-	al-	al-	al-	al-	al-	al-	al-	al-	al-	al-	2dd\	al-	al-	al-	al-	al-	al-	al-	al-	al-	al-	al-	al-	2dd\	al-	al-	al-	al-	al-	al-	al-	al-	al-	al-	al-	al-
2g\	-l(e)-	-l(e)-	-l(e)-	-l(e)-	-l(e)-	-l(e)-	-l(e)-	-l(e)-	-l(e)-	-l(e)-	-l(e)-	-l(e)-	2g\	-le-	-l(e)-	-l(e)-	-l(e)-	-l(e)-	-l(e)-	-l(e)-	-l(e)-	-l(e)-	-l(e)-	-l(e)-	-l(e)-	.	.	.	.	.	.	.	.	.	.	.	.	.	2dd\	-l(e)-	-l(e)-	-l(e)-	-l(e)-	-l(e)-	-l(e)-	-l(e)-	-l(e)-	-l(e)-	-l(e)-	-l(e)-	-l(e)-	2G/	-l(e)-	-l(e)-	-l(e)-	-l(e)-	-l(e)-	-l(e)-	-l(e)-	-l(e)-	-l(e)-	-l(e)-	-l(e)-	-l(e)-	2g\	-l(e)-	-l(e)-	-l(e)-	-l(e)-	-l(e)-	-l(e)-	-l(e)-	-l(e)-	-l(e)-	-l(e)-	-l(e)-	-l(e)-	2b-\	-l(e)-	-l(e)-	-l(e)-	-l(e)-	-l(e)-	-l(e)-	-l(e)-	-l(e)-	-l(e)-	-l(e)-	-l(e)-	-l(e)-	2dd\	-l(e)-	-l(e)-	-l(e)-	-l(e)-	-l(e)-	-l(e)-	-l(e)-	-l(e)-	-l(e)-	-l(e)-	-l(e)-	-l(e)-
.	.	.	.	.	.	.	.	.	.	.	.	.	.	.	.	.	.	.	.	.	.	.	.	.	.	4g/	-l(e)-	-l(e)-	-l(e)-	-l(e)-	-l(e)-	-l(e)-	-l(e)-	-l(e)-	-l(e)-	-l(e)-	-l(e)-	-l(e)-	.	.	.	.	.	.	.	.	.	.	.	.	.	.	.	.	.	.	.	.	.	.	.	.	.	.	.	.	.	.	.	.	.	.	.	.	.	.	.	.	.	.	.	.	.	.	.	.	.	.	.	.	.	.	.	.	.	.	.	.	.	.	.	.	.
=28-	=28-	=28-	=28-	=28-	=28-	=28-	=28-	=28-	=28-	=28-	=28-	=28-	=28-	=28-	=28-	=28-	=28-	=28-	=28-	=28-	=28-	=28-	=28-	=28-	=28-	=28-	=28-	=28-	=28-	=28-	=28-	=28-	=28-	=28-	=28-	=28-	=28-	=28-	=28-	=28-	=28-	=28-	=28-	=28-	=28-	=28-	=28-	=28-	=28-	=28-	=28-	=28-	=28-	=28-	=28-	=28-	=28-	=28-	=28-	=28-	=28-	=28-	=28-	=28-	=28-	=28-	=28-	=28-	=28-	=28-	=28-	=28-	=28-	=28-	=28-	=28-	=28-	=28-	=28-	=28-	=28-	=28-	=28-	=28-	=28-	=28-	=28-	=28-	=28-	=28-	=28-	=28-	=28-	=28-	=28-	=28-	=28-	=28-	=28-	=28-	=28-	=28-	=28-
4c/	-(lu)-	-(lu)-	-(lu)-	-(lu)-	-(lu)-	-(lu)-	-(lu)-	-(lu)-	-(lu)-	-(lu)-	-(lu)-	-(lu)-	1g	-lu-	-(lu)-	-(lu)-	-(lu)-	-(lu)-	-(lu)-	-(lu)-	-(lu)-	-(lu)-	-(lu)-	-(lu)-	-(lu)-	2.g/	-(lu)-	-(lu)-	-(lu)-	-(lu)-	-(lu)-	-(lu)-	-(lu)-	-(lu)-	-(lu)-	-(lu)-	-(lu)-	-(lu)-	1cc	-(lu)-	-(lu)-	-(lu)-	-(lu)-	-(lu)-	-(lu)-	-(lu)-	-(lu)-	-(lu)-	-(lu)-	-(lu)-	-(lu)-	1c	-(lu)-	-(lu)-	-(lu)-	-(lu)-	-(lu)-	-(lu)-	-(lu)-	-(lu)-	-(lu)-	-(lu)-	-(lu)-	-(lu)-	1g	-(lu)-	-(lu)-	-(lu)-	-(lu)-	-(lu)-	-(lu)-	-(lu)-	-(lu)-	-(lu)-	-(lu)-	-(lu)-	-(lu)-	1cc	-(lu)-	-(lu)-	-(lu)-	-(lu)-	-(lu)-	-(lu)-	-(lu)-	-(lu)-	-(lu)-	-(lu)-	-(lu)-	-(lu)-	1ee-X	-(lu)-	-(lu)-	-(lu)-	-(lu)-	-(lu)-	-(lu)-	-(lu)-	-(lu)-	-(lu)-	-(lu)-	-(lu)-	-(lu)-
4d\	.	.	.	.	.	.	.	.	.	.	.	.	.	.	.	.	.	.	.	.	.	.	.	.	.	.	.	.	.	.	.	.	.	.	.	.	.	.	.	.	.	.	.	.	.	.	.	.	.	.	.	.	.	.	.	.	.	.	.	.	.	.	.	.	.	.	.	.	.	.	.	.	.	.	.	.	.	.	.	.	.	.	.	.	.	.	.	.	.	.	.	.	.	.	.	.	.	.	.	.	.	.	.
4eny\	.	.	.	.	.	.	.	.	.	.	.	.	.	.	.	.	.	.	.	.	.	.	.	.	.	.	.	.	.	.	.	.	.	.	.	.	.	.	.	.	.	.	.	.	.	.	.	.	.	.	.	.	.	.	.	.	.	.	.	.	.	.	.	.	.	.	.	.	.	.	.	.	.	.	.	.	.	.	.	.	.	.	.	.	.	.	.	.	.	.	.	.	.	.	.	.	.	.	.	.	.	.	.
4f\	.	.	.	.	.	.	.	.	.	.	.	.	.	.	.	.	.	.	.	.	.	.	.	.	.	4a\	.	.	.	.	.	.	.	.	.	.	.	.	.	.	.	.	.	.	.	.	.	.	.	.	.	.	.	.	.	.	.	.	.	.	.	.	.	.	.	.	.	.	.	.	.	.	.	.	.	.	.	.	.	.	.	.	.	.	.	.	.	.	.	.	.	.	.	.	.	.	.	.	.	.	.	.	.
=29-	=29-	=29-	=29-	=29-	=29-	=29-	=29-	=29-	=29-	=29-	=29-	=29-	=29-	=29-	=29-	=29-	=29-	=29-	=29-	=29-	=29-	=29-	=29-	=29-	=29-	=29-	=29-	=29-	=29-	=29-	=29-	=29-	=29-	=29-	=29-	=29-	=29-	=29-	=29-	=29-	=29-	=29-	=29-	=29-	=29-	=29-	=29-	=29-	=29-	=29-	=29-	=29-	=29-	=29-	=29-	=29-	=29-	=29-	=29-	=29-	=29-	=29-	=29-	=29-	=29-	=29-	=29-	=29-	=29-	=29-	=29-	=29-	=29-	=29-	=29-	=29-	=29-	=29-	=29-	=29-	=29-	=29-	=29-	=29-	=29-	=29-	=29-	=29-	=29-	=29-	=29-	=29-	=29-	=29-	=29-	=29-	=29-	=29-	=29-	=29-	=29-	=29-	=29-
!	!	!	!	!	!	!	!	!	!	!	!	!	!	!	!	!	!	!	!	!	!	!	!	!	!	!LO:TX:a:t=P:w źródle krzyżyk w roli kasownika:problem	!	!	!	!	!	!	!	!	!	!	!	!	!	!	!	!	!	!	!	!	!	!	!	!	!	!	!	!	!	!	!	!	!	!	!	!	!	!	!	!	!	!	!	!	!	!	!	!	!	!	!	!LO:TX:a:t=P:w źródle krzyżyk w roli kasownika:problem	!	!	!	!	!	!	!	!	!	!	!	!	!	!	!	!	!	!	!	!	!	!	!	!	!
!	!	!	!	!	!	!	!	!	!	!	!	!	!	!	!	!	!	!	!	!	!	!	!	!	!	!LO:TX:t=P:problem:# below	!	!	!	!	!	!	!	!	!	!	!	!	!	!	!	!	!	!	!	!	!	!	!	!	!	!	!	!	!	!	!	!	!	!	!	!	!	!	!	!	!	!	!	!	!	!	!	!	!	!	!	!LO:TX:t=P:problem:# below	!	!	!	!	!	!	!	!	!	!	!	!	!	!	!	!	!	!	!	!	!	!	!	!	!
!	!	!	!	!	!	!	!	!	!	!	!	!	!	!	!	!	!	!	!	!	!	!	!	!	!	!LO:N:acc=#	!	!	!	!	!	!	!	!	!	!	!	!	!	!	!	!	!	!	!	!	!	!	!	!	!	!	!	!	!	!	!	!	!	!	!	!	!	!	!	!	!	!	!	!	!	!	!	!	!	!	!	!LO:N:acc=#	!	!	!	!	!	!	!	!	!	!	!	!	!	!	!	!	!	!	!	!	!	!	!	!	!
1gl;>	-(i)a.	-(i)a.	-(i)a.	-(i)a.	-(i)a.	-(i)a.	-(i)a.	-(i)a.	-(i)a.	-(i)a.	-(i)a.	-(i)a.	1gl;>	-ia.	-(i)a.	-(i)a.	-(i)a.	-(i)a.	-(i)a.	-(i)a.	-(i)a.	-(i)a.	-(i)a.	-(i)a.	-(i)a.	1bnl;>	-(i)a.	-(i)a.	-(i)a.	-(i)a.	-(i)a.	-(i)a.	-(i)a.	-(i)a.	-(i)a.	-(i)a.	-(i)a.	-(i)a.	1ddl;>	-(i)a.	-(i)a.	-(i)a.	-(i)a.	-(i)a.	-(i)a.	-(i)a.	-(i)a.	-(i)a.	-(i)a.	-(i)a.	-(i)a.	1Gl;>	-(i)a.	-(i)a.	-(i)a.	-(i)a.	-(i)a.	-(i)a.	-(i)a.	-(i)a.	-(i)a.	-(i)a.	-(i)a.	-(i)a.	1gl;;	-(i)a.	-(i)a.	-(i)a.	-(i)a.	-(i)a.	-(i)a.	-(i)a.	-(i)a.	-(i)a.	-(i)a.	-(i)a.	-(i)a.	1bnl;>	-(i)a.	-(i)a.	-(i)a.	-(i)a.	-(i)a.	-(i)a.	-(i)a.	-(i)a.	-(i)a.	-(i)a.	-(i)a.	-(i)a.	1ddl;>	-(i)a.	-(i)a.	-(i)a.	-(i)a.	-(i)a.	-(i)a.	-(i)a.	-(i)a.	-(i)a.	-(i)a.	-(i)a.	-(i)a.
==	==	==	==	==	==	==	==	==	==	==	==	==	==	==	==	==	==	==	==	==	==	==	==	==	==	==	==	==	==	==	==	==	==	==	==	==	==	==	==	==	==	==	==	==	==	==	==	==	==	==	==	==	==	==	==	==	==	==	==	==	==	==	==	==	==	==	==	==	==	==	==	==	==	==	==	==	==	==	==	==	==	==	==	==	==	==	==	==	==	==	==	==	==	==	==	==	==	==	==	==	==	==	==
*-	*-	*-	*-	*-	*-	*-	*-	*-	*-	*-	*-	*-	*-	*-	*-	*-	*-	*-	*-	*-	*-	*-	*-	*-	*-	*-	*-	*-	*-	*-	*-	*-	*-	*-	*-	*-	*-	*-	*-	*-	*-	*-	*-	*-	*-	*-	*-	*-	*-	*-	*-	*-	*-	*-	*-	*-	*-	*-	*-	*-	*-	*-	*-	*-	*-	*-	*-	*-	*-	*-	*-	*-	*-	*-	*-	*-	*-	*-	*-	*-	*-	*-	*-	*-	*-	*-	*-	*-	*-	*-	*-	*-	*-	*-	*-	*-	*-	*-	*-	*-	*-	*-	*-
!!title: @{OTL};
!!!RDF**kern: > = above
!!!RDF**kern: < = below
!!!RDF**kern: | = vertical stroke
!!!RDF**kern: N = linked
!!!RDF**kern: i = editorial accidental
!!!RDF**kern: l = terminal long
!!!ENC: Andrzej Gręziak
!!!END: 2021-10-28
!!!EED: Wojciech Jakubiak-Danek
!!!EST: 2021-11-02
!!!URL-scan: http://repozytorium.nifc.pl/skany/pl-sa-nut--l1643
!!!ONB-nifc: UWAGA: 8 ksiąg. Primi chori: 1mus Cantus (strona 158-159, księga 1 skan 0092), C 2dus (strona 160-161, księga 2 skan 0086), C 3tius (strona 156-157, księga 3 skan 0068), Bassus (strona 156-157, księga 4 skan 0080); Secondi chori: Primus Cantus (strona 161-162, księga 5 skan 0059), C 2dus (strona 162-163, księga 6 skan 0072), Altus (strona 160-161, księga 7 skan 0078), Bassus (strona 157-158, księga 8 skan 0078). UWAGA: Nie dodawać pustych linii, chyba że w rękopisie pojawiają się dodatkowe oznaczenia dotyczące pełnej obsady (a 4, a 8 itp.)
